!!!!SEGMENT: pl-cz--iii-699--001-005_volckmer-augustin--litaniae-lauretanae-g-agnus-dei.krn
!!!cenid: 17xx:1136
!!!COM: Volckmer, Augustin
!!!COM-rismID: pe30020656
!!!CDT: 1755-~1820
!!!CNT:
!!!OPR: Litaniae Lauretanae G
!!!OTL: Agnus Dei
!!!OMV: 005
!!!PDT:
!!!AGN: Sacred; Mass
!!!YEC: Copyright 2022 Narodowy Instytut Fryderyka Chopina (https://polishscores.org)
!!!YEM: License CC-BY-4.0 (https://creativecommons.org/licenses/by/4.0)
!!!SMS-siglum: PL-CZ
!!!SMS-shelfmark: III-699
!!!SMS-shelfwork: 001-005 M
!!!SMS-variant:
!!!SMS-altvar:
!!!NIFC-rismSourceID: 300001386
!!!NIFC-rismChildID: 300001386
!!!NIFC-islandoraID: pl-cz:40634
!!!URL-pdf-islandora: https://repozytorium.nifc.pl/islandora/object/pl-cz%3A40634/datastream/PDF/view
!!!URL-scan: https://polish.musicsources.pl/pl/lokalizacje/galeria/rekopisy/6995/1 @EN{Scan on Polish Music Sources Website} @PL{Skany w portalu Dziedzictwo Muzyki Polskiej w otwartym dostępie}
!!!IIIF:
!!!ONB-nifc: UWAGA: części Litanii: Kyrie eleison, Mater Christi, Salus infirmorum, Regina angelorum, Agnus Dei
!!!AIN: 1 alto 1 bass 2 cor 2 flt 1 organ 1 soprn 1 tenor 1 viola 2 violn
!!!OMD:
!!!OMD-mod: Andante molto
!!!key: G
**kern	**fba	**dynam	**kern	**dynam	**kern	**dynam	**kern	**dynam	**kern	**text	**mod-text	**kern	**text	**mod-text	**kern	**text	**mod-text	**kern	**text	**mod-text	**kern	**dynam	**kern	**dynam	**kern	**dynam	**kern	**dynam
*	*	*	*group4	*	*group4	*	*group4	*	*group3	*	*	*group3	*	*	*group3	*	*	*group3	*	*	*group2	*	*group2	*	*group1	*	*group1	*
*part12	*	*	*part11	*	*part10	*	*part9	*	*part8	*	*	*part7	*	*	*part6	*	*	*part5	*	*	*part4	*	*part3	*	*part2	*	*part1	*
*staff12	*	*	*staff11	*	*staff10	*	*staff9	*	*staff8	*	*	*staff7	*	*	*staff6	*	*	*staff5	*	*	*staff4	*	*staff3	*	*staff2	*	*staff1	*
*IGcont	*	*	*IGacmp	*	*IGacmp	*	*IGacmp	*	*IGcoro	*	*	*IGcoro	*	*	*IGcoro	*	*	*IGcoro	*	*	*IGacmp	*	*IGacmp	*	*IGacmp	*	*IGacmp	*
*ICklav	*	*	*ICstr	*	*ICstr	*	*ICstr	*	*ICvox	*	*	*ICvox	*	*	*ICvox	*	*	*ICvox	*	*	*ICbras	*	*ICbras	*	*ICww	*	*ICww	*
*Iorgan	*	*	*Iviola	*	*Ivioln	*	*Ivioln	*	*Ibass	*	*	*Itenor	*	*	*Ialto	*	*	*Isoprn	*	*	*Icor	*	*Icor	*	*Iflt	*	*Iflt	*
*I"Organo.	*	*	*I"Alto, Viola, Obligat	*	*I"Violino, Secundo,	*	*I"Violino, Primo,	*	*I"Baſso.	*	*	*I"Tenore.	*	*	*I"Alto	*	*	*I"Canto	*	*	*I"Cornu Secundo ex G	*	*I"Cornu. Primo. ex G	*	*I"Flauto. Secundo.	*	*I"Flauto. Primo.	*
*mI"Organo	*	*	*mI"Viola obligata	*	*mI"Violino II	*	*mI"Violino I	*	*mI"Basso	*	*	*mI"Tenore	*	*	*mI"Alto	*	*	*mI"Soprano	*	*	*mI"Corno II in G	*	*mI"Corno I in G	*	*mI"Flauto II	*	*mI"Flauto I	*
*I'org	*	*	*I'a-vla	*	*I'vl II	*	*I'vl I	*	*I'B	*	*	*I'T	*	*	*I'A	*	*	*I'S	*	*	*I'cor II in G	*	*I'cor I in G	*	*I'fl II	*	*I'fl I	*
*clefF4	*	*	*clefC3	*	*clefG2	*	*clefG2	*	*clefF4	*	*	*clefC4	*	*	*clefC3	*	*	*clefC1	*	*	*clefG2	*	*clefG2	*	*clefG2	*	*clefG2	*
*	*	*	*	*	*	*	*	*	*	*	*	*mclefGv2	*	*	*mclefG2	*	*	*mclefG2	*	*	*	*	*	*	*	*	*	*
*	*	*	*	*	*	*	*	*	*	*	*	*	*	*	*	*	*	*	*	*	*ITrd3c5	*	*ITrd3c5	*	*	*	*	*
*k[f#]	*	*	*k[f#]	*	*k[f#]	*	*k[f#]	*	*k[f#]	*	*	*k[f#]	*	*	*k[f#]	*	*	*k[f#]	*	*	*k[f#]	*	*k[f#]	*	*k[f#]	*	*k[f#]	*
*G:	*	*	*G:	*	*G:	*	*G:	*	*G:	*	*	*G:	*	*	*G:	*	*	*G:	*	*	*G:	*	*G:	*	*G:	*	*G:	*
*M3/4	*	*	*M3/4	*	*M3/4	*	*M3/4	*	*M3/4	*	*	*M3/4	*	*	*M3/4	*	*	*M3/4	*	*	*M3/4	*	*M3/4	*	*M3/4	*	*M3/4	*
*2\right	*	*below	*2\right	*below	*2\right	*below	*2\right	*below	*2\right	*	*	*2\right	*	*	*2\right	*	*	*2\right	*	*	*2\right	*below	*2\right	*	*2\right	*below	*2\right	*below
=1	=1	=1	=1	=1	=1	=1	=1	=1	=1	=1	=1	=1	=1	=1	=1	=1	=1	=1	=1	=1	=1	=1	=1	=1	=1	=1	=1	=1
*	*	*	*tremolo	*	*	*	*	*	*	*	*	*	*	*	*	*	*	*	*	*	*	*	*	*	*	*	*	*
!LO:TX:a:t=andante Molto:mod=	!	!	!	!	!	!	!	!	!LO:TX:a:t=andante Molto:mod=	!	!	!	!	!	!	!	!	!	!	!	!	!	!	!	!	!	!	!
!	!	!	!LO:TX:b:i:t=dolce	!	!LO:TX:b:i:t=dolce	!	!LO:TX:b:i:t=dolce	!	!LO:TX:a:t=Solo	!	!	!LO:TX:a:t=andante Molto:mod=	!	!	!LO:TX:a:t=Andante Molto:mod=	!	!	!LO:TX:a:t=Andante Molto:mod=	!	!	!LO:TX:b:i:t= :mod=[dolce]	!	!LO:TX:b:i:t=dolce	!LO:MO:null:mod=!LO&colon;DY&colon;ed=brack	!LO:TX:b:i:t=dolce	!	!LO:TX:b:i:t=dolce	!
!LO:TX:b:t=Solo	!	!	!LO:TX:a:t=Andante Molto:mod=	!	!LO:TX:a:t=Andante Molto:mod=:rj	!	!LO:TX:a:t=Andante Molto:mod=:rj	!	!LO:TX:a:t=9:mod=	!	!	!LO:TX:a:t=54:mod=	!	!	!LO:TX:a:t=54:mod=	!	!	!LO:TX:a:t=54:mod=	!	!	!LO:TX:a:t=Andante Molto:mod=	!LO:DY:b:t=piano	!LO:TX:a:t=andante Molto:mod=	!	!LO:TX:a:t=Andante Molto:mod=	!	!LO:TX:a:t=andante Molto:mod=	!
!	!	!	!	!	!	!	!	!	!LO:N:vis=00	!	!	!LO:N:vis=00	!	!	!LO:N:vis=00	!	!	!LO:N:vis=00	!	!	!	!	!	!LO:MO:null:mod=p	!	!	!	!
8G\L	5 3	.	8d\L	.	8b\L	.	4g/	.	0.r	.	.	0.r	.	.	0.r	.	.	0.r	.	.	4G/	p	4d/	.	2gg\	.	4gg\	.
8G\	.	.	8d\	.	8b\	.	.	.	.	.	.	.	.	.	.	.	.	.	.	.	.	.	.	.	.	.	.	.
8G\	.	.	8d\	.	8b\	.	4b\	.	.	.	.	.	.	.	.	.	.	.	.	.	4r	.	4r	.	.	.	4bb\	.
8G\	.	.	8d\	.	8b\	.	.	.	.	.	.	.	.	.	.	.	.	.	.	.	.	.	.	.	.	.	.	.
8G\	.	.	8d\	.	8b\	.	(8dd\L	.	.	.	.	.	.	.	.	.	.	.	.	.	4g\	.	4b\	.	4bb\	.	8ddd\L	.
8G\J	.	.	8d\J	.	8b\J	.	8ee\J)	.	.	.	.	.	.	.	.	.	.	.	.	.	.	.	.	.	.	.	8eee\J	.
=2	=2	=2	=2	=2	=2	=2	=2	=2	=2	=2	=2	=2	=2	=2	=2	=2	=2	=2	=2	=2	=2	=2	=2	=2	=2	=2	=2	=2
!	!	!	!	!	!LO:SIC:v:o=8b/L	!	!	!	!	!	!	!	!	!	!	!	!	!	!	!	!	!	!	!	!	!	!	!
8A\L	.	.	8d\L	.	8a/L	.	8dd\L	.	.	.	.	.	.	.	.	.	.	.	.	.	2d/	.	2a\	.	4ff#\	.	8ddd\L	.
8A\	.	.	8d\	.	8f#/J	.	8a\J	.	.	.	.	.	.	.	.	.	.	.	.	.	.	.	.	.	.	.	8aa\J	.
!LO:TX:t=P:problem:basso - wykreślona 4	!	!	!	!	!	!	!	!	!	!	!	!	!	!	!	!	!	!	!	!	!	!	!	!	!	!	!	!
8F#\	.	.	8d\	.	4a/	.	4cc\	.	.	.	.	.	.	.	.	.	.	.	.	.	.	.	.	.	4aa\	.	4ccc\	.
8F#\	.	.	8d\	.	.	.	.	.	.	.	.	.	.	.	.	.	.	.	.	.	.	.	.	.	.	.	.	.
8G\	.	.	8d\	.	4g/	.	4b\	.	.	.	.	.	.	.	.	.	.	.	.	.	4g\	.	4b\	.	4gg\	.	4bb\	.
*	*	*	*	*	*	*	*	*	*	*	*	*	*	*	*	*	*	*	*	*	*	*	*	*	*	*	*	*
8G\J	.	.	8d\J	.	.	.	.	.	.	.	.	.	.	.	.	.	.	.	.	.	.	.	.	.	.	.	.	.
*	*	*	*Xtremolo	*	*	*	*	*	*	*	*	*	*	*	*	*	*	*	*	*	*	*	*	*	*	*	*	*
=3	=3	=3	=3	=3	=3	=3	=3	=3	=3	=3	=3	=3	=3	=3	=3	=3	=3	=3	=3	=3	=3	=3	=3	=3	=3	=3	=3	=3
8C/L	.	.	8e\L	.	8c/L	.	(16b\LL	.	.	.	.	.	.	.	.	.	.	.	.	.	4r	.	4r	.	4cc\	.	16bb\LL	.
.	.	.	.	.	.	.	16a\)	.	.	.	.	.	.	.	.	.	.	.	.	.	.	.	.	.	.	.	16aa\	.
8C/	.	.	8e\J	.	16e/L	.	(16cc\	.	.	.	.	.	.	.	.	.	.	.	.	.	.	.	.	.	.	.	16ccc\	.
.	.	.	.	.	16c/JJ	.	16a\JJ)	.	.	.	.	.	.	.	.	.	.	.	.	.	.	.	.	.	.	.	16aa\JJ	.
*	*	*	*tremolo	*	*	*	*	*	*	*	*	*	*	*	*	*	*	*	*	*	*	*	*	*	*	*	*	*
8D/	4	.	8d\L	.	4B/	.	4g/	.	.	.	.	.	.	.	.	.	.	.	.	.	4d\	.	4b\	.	4b\	.	4gg\	.
8D/	.	.	8d\	.	.	.	.	.	.	.	.	.	.	.	.	.	.	.	.	.	.	.	.	.	.	.	.	.
8DD/	3	.	8d\	.	4A/	.	4f#/	.	.	.	.	.	.	.	.	.	.	.	.	.	4d\	.	4a\	.	4a\	.	4ff#\	.
*	*	*	*	*	*	*	*	*	*	*	*	*	*	*	*	*	*	*	*	*	*	*	*	*	*	*	*	*
8DD/J	.	.	8d\J	.	.	.	.	.	.	.	.	.	.	.	.	.	.	.	.	.	.	.	.	.	.	.	.	.
*	*	*	*Xtremolo	*	*	*	*	*	*	*	*	*	*	*	*	*	*	*	*	*	*	*	*	*	*	*	*	*
=4	=4	=4	=4	=4	=4	=4	=4	=4	=4	=4	=4	=4	=4	=4	=4	=4	=4	=4	=4	=4	=4	=4	=4	=4	=4	=4	=4	=4
4GG/	.	.	4d\	.	4B/	.	8g/L	.	.	.	.	.	.	.	.	.	.	.	.	.	4g\	.	4b\	.	4b\	.	8gg\L	.
.	.	.	.	.	.	.	8d/	.	.	.	.	.	.	.	.	.	.	.	.	.	.	.	.	.	.	.	8dd\	.
4r	.	.	4r	.	4r	.	8b/	.	.	.	.	.	.	.	.	.	.	.	.	.	4r	.	4r	.	4r	.	8bb\	.
.	.	.	.	.	.	.	8g/	.	.	.	.	.	.	.	.	.	.	.	.	.	.	.	.	.	.	.	8gg\	.
4G\	.	.	4d\	.	8B/L	.	8d/	.	.	.	.	.	.	.	.	.	.	.	.	.	4g\	.	4g\	.	4r	.	8dd\	.
.	.	.	.	.	8G/J	.	8B/J	.	.	.	.	.	.	.	.	.	.	.	.	.	.	.	.	.	.	.	8b\J	.
=5	=5	=5	=5	=5	=5	=5	=5	=5	=5	=5	=5	=5	=5	=5	=5	=5	=5	=5	=5	=5	=5	=5	=5	=5	=5	=5	=5	=5
!	!	!	!	!	!	!	!	!	!LO:N:vis=00	!	!	!LO:N:vis=00	!	!	!LO:N:vis=00	!	!	!LO:N:vis=00	!	!	!	!	!	!	!	!	!	!
4D/	.	.	4d\	.	8.A/L	.	8.cT/L	.	0.r	.	.	0.r	.	.	0.r	.	.	0.r	.	.	4d/	.	4a\	.	4a/	.	8.ccT\L	.
.	.	.	.	.	32G/LL	.	32B/LL	.	.	.	.	.	.	.	.	.	.	.	.	.	.	.	.	.	.	.	32b\LL	.
.	.	.	.	.	32A/JJJ	.	32c/JJJ	.	.	.	.	.	.	.	.	.	.	.	.	.	.	.	.	.	.	.	32cc\JJJ	.
4GG/	.	.	4d\	.	4G/	.	4B/	.	.	.	.	.	.	.	.	.	.	.	.	.	4G/	.	4d/	.	4g/	.	4b\	.
4r	.	.	4r	.	4r	.	4r	.	.	.	.	.	.	.	.	.	.	.	.	.	4r	.	4r	.	4r	.	4r	.
=6	=6	=6	=6	=6	=6	=6	=6	=6	=6	=6	=6	=6	=6	=6	=6	=6	=6	=6	=6	=6	=6	=6	=6	=6	=6	=6	=6	=6
*tremolo	*	*	*tremolo	*	*tremolo	*	*	*	*	*	*	*	*	*	*	*	*	*	*	*	*	*	*	*	*	*	*	*
!	!	!	!	!	!	!	!	!	!	!	!	!	!	!	!	!	!	!	!	!	!LO:TX:a:t=2:mod=	!	!LO:TX:a:t=2:mod=	!	!	!	!	!
!	!	!	!	!	!	!	!	!	!	!	!	!	!	!	!	!	!	!	!	!	!LO:N:vis=0	!	!LO:N:vis=0	!	!	!	!	!
8C/L	3	.	8c\L	.	8g/L	.	4ee\	.	.	.	.	.	.	.	.	.	.	.	.	.	1.r	.	1.r	.	2.cc\	.	2.ee\	.
8C/	.	.	8c\	.	8g/	.	.	.	.	.	.	.	.	.	.	.	.	.	.	.	.	.	.	.	.	.	.	.
8C/	.	.	8c\	.	8g/	.	(16ee\LL	.	.	.	.	.	.	.	.	.	.	.	.	.	.	.	.	.	.	.	.	.
.	.	.	.	.	.	.	16gg\	.	.	.	.	.	.	.	.	.	.	.	.	.	.	.	.	.	.	.	.	.
8C/	.	.	8c\	.	8g/	.	16ff#\	.	.	.	.	.	.	.	.	.	.	.	.	.	.	.	.	.	.	.	.	.
.	.	.	.	.	.	.	16gg\JJ)	.	.	.	.	.	.	.	.	.	.	.	.	.	.	.	.	.	.	.	.	.
8C/	.	.	8c\	.	8g/	.	(16aa\LL	.	.	.	.	.	.	.	.	.	.	.	.	.	.	.	.	.	.	.	.	.
.	.	.	.	.	.	.	16gg\	.	.	.	.	.	.	.	.	.	.	.	.	.	.	.	.	.	.	.	.	.
8C/J	.	.	8c\J	.	8g/J	.	16ff#\	.	.	.	.	.	.	.	.	.	.	.	.	.	.	.	.	.	.	.	.	.
.	.	.	.	.	.	.	16gg\JJ)	.	.	.	.	.	.	.	.	.	.	.	.	.	.	.	.	.	.	.	.	.
!	!	!	!	!	!LO:LB:g=original	!	!LO:LB:g=original	!	!	!	!	!	!	!	!	!	!	!	!	!	!	!	!	!	!	!	!	!
=7	=7	=7	=7	=7	=7	=7	=7	=7	=7	=7	=7	=7	=7	=7	=7	=7	=7	=7	=7	=7	=7	=7	=7	=7	=7	=7	=7	=7
8BB/L	6 3	.	8B/L	.	8g/L	.	4dd\	.	.	.	.	.	.	.	.	.	.	.	.	.	.	.	.	.	2.b\	.	2.dd\	.
8BB/	.	.	8B/	.	8g/	.	.	.	.	.	.	.	.	.	.	.	.	.	.	.	.	.	.	.	.	.	.	.
8BB/	.	.	8B/	.	8g/	.	(16dd\LL	.	.	.	.	.	.	.	.	.	.	.	.	.	.	.	.	.	.	.	.	.
!	!	!	!	!	!	!	!LO:SIC:o=16gg\)	!	!	!	!	!	!	!	!	!	!	!	!	!	!	!	!	!	!	!	!	!
.	.	.	.	.	.	.	16gg\	.	.	.	.	.	.	.	.	.	.	.	.	.	.	.	.	.	.	.	.	.
8BB/	.	.	8B/	.	8g/	.	16ff#\	.	.	.	.	.	.	.	.	.	.	.	.	.	.	.	.	.	.	.	.	.
!	!	!	!	!	!	!	!LO:SIC:o=16gg\JJ	!	!	!	!	!	!	!	!	!	!	!	!	!	!	!	!	!	!	!	!	!
.	.	.	.	.	.	.	16gg\JJ)	.	.	.	.	.	.	.	.	.	.	.	.	.	.	.	.	.	.	.	.	.
!	!	!	!	!	!	!	!LO:SIC:o=16aa\LL	!	!	!	!	!	!	!	!	!	!	!	!	!	!	!	!	!	!	!	!	!
8BB/	.	.	8B/	.	8g/	.	(16aa\LL	.	.	.	.	.	.	.	.	.	.	.	.	.	.	.	.	.	.	.	.	.
!	!	!	!	!	!	!	!LO:SIC:o=(16gg\	!	!	!	!	!	!	!	!	!	!	!	!	!	!	!	!	!	!	!	!	!
.	.	.	.	.	.	.	16gg\	.	.	.	.	.	.	.	.	.	.	.	.	.	.	.	.	.	.	.	.	.
*	*	*	*	*	*	*	*	*	*	*	*	*	*	*	*	*	*	*	*	*	*	*	*	*	*	*	*	*
8BB/J	.	.	8B/J	.	8g/J	.	16ff#\	.	.	.	.	.	.	.	.	.	.	.	.	.	.	.	.	.	.	.	.	.
.	.	.	.	.	.	.	16gg\JJ)	.	.	.	.	.	.	.	.	.	.	.	.	.	.	.	.	.	.	.	.	.
*Xtremolo	*	*	*	*	*Xtremolo	*	*	*	*	*	*	*	*	*	*	*	*	*	*	*	*	*	*	*	*	*	*	*
=8	=8	=8	=8	=8	=8	=8	=8	=8	=8	=8	=8	=8	=8	=8	=8	=8	=8	=8	=8	=8	=8	=8	=8	=8	=8	=8	=8	=8
8D\L	7 5	.	8d\L	.	8f#\L	.	8dd\L	.	.	.	.	.	.	.	.	.	.	.	.	.	4r	.	4r	.	4a/	.	4dd\	.
8D\	.	.	8d\	.	8f#\	.	8cc\J	.	.	.	.	.	.	.	.	.	.	.	.	.	.	.	.	.	.	.	.	.
8F#\	x _	.	8d\	.	8a\	.	4cc\	.	.	.	.	.	.	.	.	.	.	.	.	.	4d\	.	4a\	.	4ff#\	.	4ccc\	.
.	x x	.	.	.	.	.	.	.	.	.	.	.	.	.	.	.	.	.	.	.	.	.	.	.	.	.	.	.
8F#\	x _	.	8d\	.	8a\	.	.	.	.	.	.	.	.	.	.	.	.	.	.	.	.	.	.	.	.	.	.	.
.	x x	.	.	.	.	.	.	.	.	.	.	.	.	.	.	.	.	.	.	.	.	.	.	.	.	.	.	.
8G\	3	.	8d\	.	8g\	.	4b\	.	.	.	.	.	.	.	.	.	.	.	.	.	4g\	.	4b\	.	4gg\	.	4bb\	.
*	*	*	*	*	*	*	*	*	*	*	*	*	*	*	*	*	*	*	*	*	*	*	*	*	*	*	*	*
8G\J	.	.	8d\J	.	8g\J	.	.	.	.	.	.	.	.	.	.	.	.	.	.	.	.	.	.	.	.	.	.	.
*	*	*	*Xtremolo	*	*	*	*	*	*	*	*	*	*	*	*	*	*	*	*	*	*	*	*	*	*	*	*	*
!	!	!	!	!	!	!	!	!	!	!	!	!	!	!	!	!	!	!	!	!	!	!	!	!	!	!	!LO:LB:g=original	!
=9	=9	=9	=9	=9	=9	=9	=9	=9	=9	=9	=9	=9	=9	=9	=9	=9	=9	=9	=9	=9	=9	=9	=9	=9	=9	=9	=9	=9
!	!	!	!	!	!	!	!	!	!	!	!	!LO:N:vis=00	!	!	!LO:N:vis=00	!	!	!LO:N:vis=00	!	!	!	!	!	!	!	!	!	!
4D/	4	.	4d\	.	8.gT/L	.	8.bt\L	.	2.r	.	.	0.r	.	.	0.r	.	.	0.r	.	.	4g\	.	4b\	.	4gg\	.	8.bbt\L	.
.	.	.	.	.	32f#/LL	.	32a\LL	.	.	.	.	.	.	.	.	.	.	.	.	.	.	.	.	.	.	.	32aa\LL	.
.	.	.	.	.	32g/JJJ	.	32b\JJJ	.	.	.	.	.	.	.	.	.	.	.	.	.	.	.	.	.	.	.	32bb\JJJ	.
4DD/	3	.	4d\	.	4f#/	.	4a/	.	.	.	.	.	.	.	.	.	.	.	.	.	4d\	.	4a\	.	4ff#\	.	4aa\	.
4r	.	.	4r	.	4r	.	4r	.	.	.	.	.	.	.	.	.	.	.	.	.	4r	.	4r	.	4r	.	4r	.
!LO:LB:g=original	!	!	!LO:LB:g=original	!	!	!	!	!	!	!	!	!	!	!	!	!	!	!	!	!	!	!	!	!	!LO:LB:g=original	!	!	!
=10	=10	=10	=10	=10	=10	=10	=10	=10	=10	=10	=10	=10	=10	=10	=10	=10	=10	=10	=10	=10	=10	=10	=10	=10	=10	=10	=10	=10
*tremolo	*	*	*tremolo	*	*	*	*	*	*	*	*	*	*	*	*	*	*	*	*	*	*	*	*	*	*	*	*	*
!	!	!	!	!LO:MO:null:mod=!LO&colon;DY&colon;ed=brack	!	!	!	!	!	!	!	!	!	!	!	!	!	!	!	!	!	!	!	!	!	!	!	!
!	!	!	!	!	!	!LO:DY:a:t=piano	!	!LO:DY:a:t=piano	!	!	!	!	!	!	!	!	!	!	!	!	!LO:TX:a:t=23:mod=	!	!LO:TX:a:t=23:mod=	!	!LO:TX:a:t=5:mod=	!	!LO:TX:a:t=5:mod=	!
!	!	!	!	!LO:MO:null:mod=p	!	!	!	!	!	!	!	!	!	!	!	!	!	!	!	!	!LO:N:vis=00	!	!LO:N:vis=00	!	!LO:N:vis=00	!	!LO:N:vis=00	!
8G\L	.	.	8d\L	.	4G/	p	4g/	p	(4G\	Ag-	A-	.	.	.	.	.	.	.	.	.	0.r	.	0.r	.	0.r	.	0.r	.
8G\	.	.	8d\	.	.	.	.	.	.	.	.	.	.	.	.	.	.	.	.	.	.	.	.	.	.	.	.	.
8G\	.	.	8d\	.	4B/	.	4b/	.	4B\)	.	.	.	.	.	.	.	.	.	.	.	.	.	.	.	.	.	.	.
*	*	*	*	*	*	*	*	*	*	*	*	*	*	*	*	*	*	*	*	*	*	*	*	*	*	*	*	*
8G\J	.	.	8d\	.	.	.	.	.	.	.	.	.	.	.	.	.	.	.	.	.	.	.	.	.	.	.	.	.
*Xtremolo	*	*	*	*	*	*	*	*	*	*	*	*	*	*	*	*	*	*	*	*	*	*	*	*	*	*	*	*
8B\L	.	.	8d\	.	8d/L	.	(8.dd\L	.	8d\L	-nus	-gnus	.	.	.	.	.	.	.	.	.	.	.	.	.	.	.	.	.
8B\J	.	.	8d\J	.	8e/J	.	.	.	8e\J	.	.	.	.	.	.	.	.	.	.	.	.	.	.	.	.	.	.	.
.	.	.	.	.	.	.	16ee\Jk)	.	.	.	.	.	.	.	.	.	.	.	.	.	.	.	.	.	.	.	.	.
=11	=11	=11	=11	=11	=11	=11	=11	=11	=11	=11	=11	=11	=11	=11	=11	=11	=11	=11	=11	=11	=11	=11	=11	=11	=11	=11	=11	=11
!	!	!	!	!	!	!	!	!	!LO:SIC:o=8d\L	!	!	!	!	!	!	!	!	!	!	!	!	!	!	!	!	!	!	!
8A\L	.	.	8d\L	.	8d/L	.	8dd\L	.	(8d\L	De-	De-	.	.	.	.	.	.	.	.	.	.	.	.	.	.	.	.	.
!	!	!	!	!	!	!	!	!	!LO:SIC:o=(8A\J	!	!	!	!	!	!	!	!	!	!	!	!	!	!	!	!	!	!	!
8A\	.	.	8d\	.	8A/J	.	8a\J	.	8A\J	.	.	.	.	.	.	.	.	.	.	.	.	.	.	.	.	.	.	.
8F#\	.	.	8d\	.	4c/	.	4cc\	.	4c\)	.	.	.	.	.	.	.	.	.	.	.	.	.	.	.	.	.	.	.
8F#\	.	.	8d\	.	.	.	.	.	.	.	.	.	.	.	.	.	.	.	.	.	.	.	.	.	.	.	.	.
8G\	.	.	8d\	.	4B/	.	4b\	.	4B\	-i	-i,	.	.	.	.	.	.	.	.	.	.	.	.	.	.	.	.	.
*	*	*	*	*	*	*	*	*	*	*	*	*	*	*	*	*	*	*	*	*	*	*	*	*	*	*	*	*
8G\J	.	.	8d\J	.	.	.	.	.	.	.	.	.	.	.	.	.	.	.	.	.	.	.	.	.	.	.	.	.
*	*	*	*Xtremolo	*	*	*	*	*	*	*	*	*	*	*	*	*	*	*	*	*	*	*	*	*	*	*	*	*
=12	=12	=12	=12	=12	=12	=12	=12	=12	=12	=12	=12	=12	=12	=12	=12	=12	=12	=12	=12	=12	=12	=12	=12	=12	=12	=12	=12	=12
8C/L	.	.	8e\L	.	8c/L	.	(16b\LL	.	16B\LL	qvi	qui	.	.	.	.	.	.	.	.	.	.	.	.	.	.	.	.	.
.	.	.	.	.	.	.	16a\)	.	16A\	.	.	.	.	.	.	.	.	.	.	.	.	.	.	.	.	.	.	.
8C/	.	.	8e\J	.	16e/L	.	(16cc\	.	16c\	.	.	.	.	.	.	.	.	.	.	.	.	.	.	.	.	.	.	.
.	.	.	.	.	16c/JJ	.	16a\JJ)	.	16A\JJ	.	.	.	.	.	.	.	.	.	.	.	.	.	.	.	.	.	.	.
*	*	*	*tremolo	*	*	*	*	*	*	*	*	*	*	*	*	*	*	*	*	*	*	*	*	*	*	*	*	*
8D/	4	.	8d\L	.	4B/	.	4g/	.	4G\	tol-	tol-	.	.	.	.	.	.	.	.	.	.	.	.	.	.	.	.	.
8D/	.	.	8d\	.	.	.	.	.	.	.	.	.	.	.	.	.	.	.	.	.	.	.	.	.	.	.	.	.
8DD/	3	.	8d\	.	4A/	.	4f#/	.	4F#\	-lis	-lis	.	.	.	.	.	.	.	.	.	.	.	.	.	.	.	.	.
*	*	*	*	*	*	*	*	*	*	*	*	*	*	*	*	*	*	*	*	*	*	*	*	*	*	*	*	*
8DD/J	.	.	8d\J	.	.	.	.	.	.	.	.	.	.	.	.	.	.	.	.	.	.	.	.	.	.	.	.	.
*	*	*	*Xtremolo	*	*	*	*	*	*	*	*	*	*	*	*	*	*	*	*	*	*	*	*	*	*	*	*	*
=13	=13	=13	=13	=13	=13	=13	=13	=13	=13	=13	=13	=13	=13	=13	=13	=13	=13	=13	=13	=13	=13	=13	=13	=13	=13	=13	=13	=13
!	!	!	!	!	!	!	!	!	!	!	!	!LO:N:vis=00	!	!	!LO:N:vis=00	!	!	!LO:N:vis=00	!	!	!	!	!	!	!	!	!	!
4GG/	.	.	4d\	.	4B/	.	8g/L	.	8G\L	pec-	pec-	0.r	.	.	0.r	.	.	0.r	.	.	.	.	.	.	.	.	.	.
.	.	.	.	.	.	.	8d/	.	8D\J	.	.	.	.	.	.	.	.	.	.	.	.	.	.	.	.	.	.	.
4r	.	.	4r	.	4r	.	8b/	.	8B\L	-ca-	-ca-	.	.	.	.	.	.	.	.	.	.	.	.	.	.	.	.	.
.	.	.	.	.	.	.	8g/	.	8G\J	.	.	.	.	.	.	.	.	.	.	.	.	.	.	.	.	.	.	.
4G\	.	.	4d\	.	4B/	.	8d/	.	8D\L	-ta	-ta	.	.	.	.	.	.	.	.	.	.	.	.	.	.	.	.	.
.	.	.	.	.	.	.	8B/J	.	8BB\J	.	.	.	.	.	.	.	.	.	.	.	.	.	.	.	.	.	.	.
=14	=14	=14	=14	=14	=14	=14	=14	=14	=14	=14	=14	=14	=14	=14	=14	=14	=14	=14	=14	=14	=14	=14	=14	=14	=14	=14	=14	=14
!	!	!	!	!	!	!	!	!	!	!	!	!	!	!	!	!	!	!	!	!	!LO:N:vis=00	!	!LO:N:vis=00	!	!	!	!	!
4D\	.	.	4d\	.	8.A/L	.	8.cT/L	.	8C/L	mun-	mun-	.	.	.	.	.	.	.	.	.	0.r	.	0.r	.	2.r	.	2.r	.
.	.	.	.	.	.	.	.	.	16BB/L	.	.	.	.	.	.	.	.	.	.	.	.	.	.	.	.	.	.	.
.	.	.	.	.	32G/LL	.	32B/LL	.	16C/JJ	.	.	.	.	.	.	.	.	.	.	.	.	.	.	.	.	.	.	.
.	.	.	.	.	32A/JJJ	.	32c/JJJ	.	.	.	.	.	.	.	.	.	.	.	.	.	.	.	.	.	.	.	.	.
!	!	!	!	!	!	!	!	!	!LO:TX:a:t=h:mod=	!	!	!	!	!	!	!	!	!	!	!	!	!	!	!	!	!	!	!
4GG/	.	.	4d\	.	4G/	.	4B/	.	4BB/	-di	-di:	.	.	.	.	.	.	.	.	.	.	.	.	.	.	.	.	.
4r	.	.	4r	.	4r	.	4r	.	4r	.	.	.	.	.	.	.	.	.	.	.	.	.	.	.	.	.	.	.
!	!	!	!	!	!	!	!LO:LB:g=original	!	!	!	!	!	!	!	!	!	!	!	!	!	!	!	!	!	!	!	!	!
=15	=15	=15	=15	=15	=15	=15	=15	=15	=15	=15	=15	=15	=15	=15	=15	=15	=15	=15	=15	=15	=15	=15	=15	=15	=15	=15	=15	=15
*tremolo	*	*	*tremolo	*	*tremolo	*	*	*	*	*	*	*	*	*	*	*	*	*	*	*	*	*	*	*	*	*	*	*
!	!	!	!	!	!	!	!	!	!LO:TX:a:t=e:mod=	!	!	!	!	!	!	!	!	!	!	!	!	!	!	!	!	!	!	!
8C/L	.	.	8c\L	.	8g/L	.	4ee\	.	4E\	par-	par-	.	.	.	.	.	.	.	.	.	.	.	.	.	2.cc\	.	2.ee\	.
8C/	.	.	8c\	.	8g/	.	.	.	.	.	.	.	.	.	.	.	.	.	.	.	.	.	.	.	.	.	.	.
!	!	!	!	!	!	!	!LO:SIC:o=16ee\LL	!	!LO:SIC:o=16E\LL	!	!	!	!	!	!	!	!	!	!	!	!	!	!	!	!	!	!	!
8C/	.	.	8c\	.	8g/	.	(16ee\LL	.	(16E\LL	.	.	.	.	.	.	.	.	.	.	.	.	.	.	.	.	.	.	.
!	!	!	!	!	!	!	!LO:SIC:o=(16gg\	!	!	!	!	!	!	!	!	!	!	!	!	!	!	!	!	!	!	!	!	!
.	.	.	.	.	.	.	16gg\	.	16G\	.	.	.	.	.	.	.	.	.	.	.	.	.	.	.	.	.	.	.
!	!	!	!	!	!	!	!	!	!LO:SIC:o=(16F#\	!	!	!	!	!	!	!	!	!	!	!	!	!	!	!	!	!	!	!
8C/	.	.	8c\	.	8g/	.	16ff#\	.	16F#\	.	.	.	.	.	.	.	.	.	.	.	.	.	.	.	.	.	.	.
.	.	.	.	.	.	.	16gg\JJ)	.	16G\JJ	.	.	.	.	.	.	.	.	.	.	.	.	.	.	.	.	.	.	.
!	!	!	!	!	!	!	!LO:SIC:o=16aa\LL	!	!LO:SIC:o=16A\LL)	!	!	!	!	!	!	!	!	!	!	!	!	!	!	!	!	!	!	!
8C/	.	.	8c\	.	8g/	.	(16aa\LL	.	16A\LL	.	.	.	.	.	.	.	.	.	.	.	.	.	.	.	.	.	.	.
!	!	!	!	!	!	!	!LO:SIC:o=(16gg\	!	!	!	!	!	!	!	!	!	!	!	!	!	!	!	!	!	!	!	!	!
.	.	.	.	.	.	.	16gg\	.	16G\	.	.	.	.	.	.	.	.	.	.	.	.	.	.	.	.	.	.	.
8C/J	.	.	8c\J	.	8g/J	.	16ff#\	.	16F#\	.	.	.	.	.	.	.	.	.	.	.	.	.	.	.	.	.	.	.
.	.	.	.	.	.	.	16gg\JJ)	.	16G\JJ	.	.	.	.	.	.	.	.	.	.	.	.	.	.	.	.	.	.	.
!	!	!	!	!	!	!	!	!	!LO:LB:g=original	!	!	!	!	!	!	!	!	!	!	!	!	!	!	!	!	!	!	!
=16	=16	=16	=16	=16	=16	=16	=16	=16	=16	=16	=16	=16	=16	=16	=16	=16	=16	=16	=16	=16	=16	=16	=16	=16	=16	=16	=16	=16
8BB/L	.	.	8B/L	.	8g/L	.	4dd\	.	4D\	.	.	.	.	.	.	.	.	.	.	.	.	.	.	.	2.b\	.	2.dd\	.
8BB/	.	.	8B/	.	8g/	.	.	.	.	.	.	.	.	.	.	.	.	.	.	.	.	.	.	.	.	.	.	.
!	!	!	!	!	!	!	!LO:SIC:o=16dd\LL	!	!	!	!	!	!	!	!	!	!	!	!	!	!	!	!	!	!	!	!	!
8BB/	.	.	8B/	.	8g/	.	(16dd\LL	.	16D\LL	.	.	.	.	.	.	.	.	.	.	.	.	.	.	.	.	.	.	.
!	!	!	!	!	!	!	!LO:SIC:o=(16gg\	!	!	!	!	!	!	!	!	!	!	!	!	!	!	!	!	!	!	!	!	!
.	.	.	.	.	.	.	16gg\	.	16G\	.	.	.	.	.	.	.	.	.	.	.	.	.	.	.	.	.	.	.
8BB/	.	.	8B/	.	8g/	.	16ff#\	.	16F#\	.	.	.	.	.	.	.	.	.	.	.	.	.	.	.	.	.	.	.
.	.	.	.	.	.	.	16gg\JJ)	.	16G\JJ	.	.	.	.	.	.	.	.	.	.	.	.	.	.	.	.	.	.	.
8BB/	.	.	8B/	.	8g/	.	(16aa\LL	.	16A\LL	.	.	.	.	.	.	.	.	.	.	.	.	.	.	.	.	.	.	.
!	!	!	!	!	!	!	!	!	!LO:SIC:o=16G\	!	!	!	!	!	!	!	!	!	!	!	!	!	!	!	!	!	!	!
.	.	.	.	.	.	.	16gg\	.	16G\JJ)	.	.	.	.	.	.	.	.	.	.	.	.	.	.	.	.	.	.	.
*	*	*	*	*	*	*	*	*	*	*	*	*	*	*	*	*	*	*	*	*	*	*	*	*	*	*	*	*
!	!	!	!	!	!	!	!	!	!LO:SIC:o=16F#\	!	!	!	!	!	!	!	!	!	!	!	!	!	!	!	!	!	!	!
8BB/J	.	.	8B/J	.	8g/J	.	16ff#\	.	16F#\LL	-ce	-ce	.	.	.	.	.	.	.	.	.	.	.	.	.	.	.	.	.
.	.	.	.	.	.	.	16gg\JJ)	.	16G\JJ	.	.	.	.	.	.	.	.	.	.	.	.	.	.	.	.	.	.	.
*Xtremolo	*	*	*Xtremolo	*	*Xtremolo	*	*	*	*	*	*	*	*	*	*	*	*	*	*	*	*	*	*	*	*	*	*	*
!	!	!	!	!	!LO:LB:g=original	!	!	!	!	!	!	!	!	!	!	!	!	!	!	!	!	!	!	!	!	!	!	!
=17	=17	=17	=17	=17	=17	=17	=17	=17	=17	=17	=17	=17	=17	=17	=17	=17	=17	=17	=17	=17	=17	=17	=17	=17	=17	=17	=17	=17
!	!	!	!	!	!	!	!	!	!	!	!	!LO:N:vis=00	!	!	!LO:N:vis=00	!	!	!LO:N:vis=00	!	!	!	!	!	!	!	!	!	!
8D\L	7 5	.	4d\	.	4f#/	.	8dd\L	.	(4D\	no-	no-	0.r	.	.	0.r	.	.	0.r	.	.	.	.	.	.	4r	.	4r	.
8D\	.	.	.	.	.	.	8cc\J	.	.	.	.	.	.	.	.	.	.	.	.	.	.	.	.	.	.	.	.	.
!	!	!	!	!	!	!	!	!	!	!	!	!	!	!	!	!	!	!	!	!	!	!	!	!	!LO:SIC:v:o=4gg\	!	!	!
8F#\	_ _	.	4d\	.	4a/	.	4cc\	.	4c\)	.	.	.	.	.	.	.	.	.	.	.	.	.	.	.	4aa\	.	4ccc\	.
8F#\	.	.	.	.	.	.	.	.	.	.	.	.	.	.	.	.	.	.	.	.	.	.	.	.	.	.	.	.
!	!	!	!	!	!	!	!	!	!	!	!	!	!	!	!	!	!	!	!	!	!	!	!	!	!LO:SIC:v:o=4ff#\	!	!	!
8G\	3	.	4d\	.	4g/	.	4b\	.	4B\	-bis	-bis	.	.	.	.	.	.	.	.	.	.	.	.	.	4gg\	.	4bb\	.
8G\J	.	.	.	.	.	.	.	.	.	.	.	.	.	.	.	.	.	.	.	.	.	.	.	.	.	.	.	.
=18	=18	=18	=18	=18	=18	=18	=18	=18	=18	=18	=18	=18	=18	=18	=18	=18	=18	=18	=18	=18	=18	=18	=18	=18	=18	=18	=18	=18
!	!	!	!	!	!	!	!	!	!	!	!	!	!	!	!	!	!	!	!	!	!LO:N:vis=00	!	!LO:N:vis=00	!	!LO:SIC:v:o=4ff#\	!	!	!
4D/	.	.	4d\	.	8.g/L	.	8.bt\L	.	8.Bt\L	Do-	Do-	.	.	.	.	.	.	.	.	.	0.r	.	0.r	.	4gg\	.	4bb\	.
.	.	.	.	.	32f#/LL	.	32a\LL	.	32A\LL	-mi-	-mi-	.	.	.	.	.	.	.	.	.	.	.	.	.	.	.	.	.
.	.	.	.	.	32g/JJJ	.	32b\JJJ	.	32B\JJJ	.	.	.	.	.	.	.	.	.	.	.	.	.	.	.	.	.	.	.
!	!	!	!	!	!	!	!	!	!	!	!	!	!	!	!	!	!	!	!	!	!	!	!	!	!LO:SIC:v:o=4ee\	!	!	!
4AA/	.	.	4d\	.	4f#/	.	4a/	.	4A\	-ne	-ne.	.	.	.	.	.	.	.	.	.	.	.	.	.	4ff#\	.	4aa\	.
4DD/	.	.	4r	.	4r	.	4r	.	4r	.	.	.	.	.	.	.	.	.	.	.	.	.	.	.	4r	.	4r	.
=19	=19	=19	=19	=19	=19	=19	=19	=19	=19	=19	=19	=19	=19	=19	=19	=19	=19	=19	=19	=19	=19	=19	=19	=19	=19	=19	=19	=19
*tremolo	*	*	*tremolo	*	*tremolo	*	*	*	*	*	*	*	*	*	*	*	*	*	*	*	*	*	*	*	*	*	*	*
!	!	!	!	!	!	!	!	!	!	!	!	!	!	!	!	!	!	!	!	!	!	!	!	!	!LO:TX:a:t=14:mod=	!	!LO:TX:a:t=14:mod=	!
!	!	!	!	!	!	!	!	!	!	!	!	!	!	!	!	!	!	!	!	!	!	!	!	!	!LO:N:vis=00	!	!LO:N:vis=00	!
8D\L	.	.	8a\L	.	8f#/L	.	[4a/	.	[4A\	Ag-	A-	.	.	.	.	.	.	.	.	.	.	.	.	.	0.r	.	0.r	.
8D\	.	.	8a\	.	8f#/	.	.	.	.	.	.	.	.	.	.	.	.	.	.	.	.	.	.	.	.	.	.	.
8D\	.	.	8a\	.	8f#/	.	8a/L]	.	8A\L]	.	.	.	.	.	.	.	.	.	.	.	.	.	.	.	.	.	.	.
8D\	.	.	8a\	.	8f#/	.	8f#/J	.	8F#\J	.	.	.	.	.	.	.	.	.	.	.	.	.	.	.	.	.	.	.
8D\	.	.	8a\	.	8f#/	.	8dd\L	.	8d\L	-nus	-gnus	.	.	.	.	.	.	.	.	.	.	.	.	.	.	.	.	.
8D\J	.	.	8a\J	.	8f#/J	.	8a\J	.	8A\J	.	.	.	.	.	.	.	.	.	.	.	.	.	.	.	.	.	.	.
=20	=20	=20	=20	=20	=20	=20	=20	=20	=20	=20	=20	=20	=20	=20	=20	=20	=20	=20	=20	=20	=20	=20	=20	=20	=20	=20	=20	=20
!	!	!	!	!	!	!	!LO:SIC:o=16a/LL	!	!	!	!	!	!	!	!	!	!	!	!	!	!	!	!	!	!	!	!	!
8E\L	.	.	8a\L	.	8g/L	.	(16a/LL	.	16A\LL	De-	De-	.	.	.	.	.	.	.	.	.	.	.	.	.	.	.	.	.
!	!	!	!	!	!	!	!LO:SIC:o=(16g/	!	!LO:SIC:o=(16G\	!	!	!	!	!	!	!	!	!	!	!	!	!	!	!	!	!	!	!
.	.	.	.	.	.	.	16g/	.	16G\	.	.	.	.	.	.	.	.	.	.	.	.	.	.	.	.	.	.	.
8E\	.	.	8a\	.	8g/	.	16f#/	.	16F#\	.	.	.	.	.	.	.	.	.	.	.	.	.	.	.	.	.	.	.
!	!	!	!	!	!	!	!	!	!LO:SIC:o=16G\JJ)	!	!	!	!	!	!	!	!	!	!	!	!	!	!	!	!	!	!	!
.	.	.	.	.	.	.	16g/JJ)	.	16G\JJ	.	.	.	.	.	.	.	.	.	.	.	.	.	.	.	.	.	.	.
8E\	.	.	8a\	.	8g/	.	4g/	.	4G\	-i	-i,	.	.	.	.	.	.	.	.	.	.	.	.	.	.	.	.	.
8E\	.	.	8a\	.	8g/	.	.	.	.	.	.	.	.	.	.	.	.	.	.	.	.	.	.	.	.	.	.	.
8E\	.	.	8a\	.	8g/	.	4r	.	4r	.	.	.	.	.	.	.	.	.	.	.	.	.	.	.	.	.	.	.
8E\J	.	.	8a\J	.	8g/J	.	.	.	.	.	.	.	.	.	.	.	.	.	.	.	.	.	.	.	.	.	.	.
=21	=21	=21	=21	=21	=21	=21	=21	=21	=21	=21	=21	=21	=21	=21	=21	=21	=21	=21	=21	=21	=21	=21	=21	=21	=21	=21	=21	=21
!	!	!	!	!	!	!	!	!	!LO:SIC:o=4.G\	!	!	!LO:N:vis=00	!	!	!LO:N:vis=00	!	!	!LO:N:vis=00	!	!	!	!	!	!	!	!	!	!
8C#X/L	.	.	8a\L	.	8e/L	.	4.g/	.	(4.G\	Ag-	A-	0.r	.	.	0.r	.	.	0.r	.	.	.	.	.	.	.	.	.	.
8C#/	.	.	8a\	.	8e/	.	.	.	.	.	.	.	.	.	.	.	.	.	.	.	.	.	.	.	.	.	.	.
8C#/	.	.	8a\	.	8e/	.	.	.	.	.	.	.	.	.	.	.	.	.	.	.	.	.	.	.	.	.	.	.
8C#/	.	.	8a\	.	8e/	.	16f#/LL	.	16F#\LL	.	.	.	.	.	.	.	.	.	.	.	.	.	.	.	.	.	.	.
!	!	!	!	!	!	!	!	!	!LO:SIC:o=16G\JJ	!	!	!	!	!	!	!	!	!	!	!	!	!	!	!	!	!	!	!
.	.	.	.	.	.	.	16g/JJ	.	16G\JJ)	.	.	.	.	.	.	.	.	.	.	.	.	.	.	.	.	.	.	.
8C#/	.	.	8a\	.	8e/	.	8a/L	.	8A\L	-nus	-gnus	.	.	.	.	.	.	.	.	.	.	.	.	.	.	.	.	.
*	*	*	*	*	*	*	*	*	*	*	*	*	*	*	*	*	*	*	*	*	*	*	*	*	*	*	*	*
8C#/J	.	.	8a\J	.	8e/J	.	8g/J	.	8G\J	.	.	.	.	.	.	.	.	.	.	.	.	.	.	.	.	.	.	.
*	*	*	*	*	*Xtremolo	*	*	*	*	*	*	*	*	*	*	*	*	*	*	*	*	*	*	*	*	*	*	*
!LO:LB:g=original	!	!	!LO:LB:g=original	!	!	!	!LO:LB:g=original	!	!LO:LB:g=original	!	!	!	!	!	!	!	!	!	!	!	!	!	!	!	!	!	!	!
=22	=22	=22	=22	=22	=22	=22	=22	=22	=22	=22	=22	=22	=22	=22	=22	=22	=22	=22	=22	=22	=22	=22	=22	=22	=22	=22	=22	=22
!	!	!	!	!	!	!	!	!	!	!	!	!	!	!	!	!	!	!	!	!	!LO:N:vis=00	!	!LO:N:vis=00	!	!	!	!	!
8D\L	.	.	8a\L	.	8e/L	.	8g/L	.	8G\L	De-	De-	.	.	.	.	.	.	.	.	.	0.r	.	0.r	.	.	.	.	.
8D\	.	.	8a\	.	8d/J	.	8f#/J	.	8F#\J	.	.	.	.	.	.	.	.	.	.	.	.	.	.	.	.	.	.	.
8D\	.	.	8a\	.	4d/	.	4f#/	.	4F#\	-i	-i,	.	.	.	.	.	.	.	.	.	.	.	.	.	.	.	.	.
*	*	*	*	*	*	*	*	*	*	*	*	*	*	*	*	*	*	*	*	*	*	*	*	*	*	*	*	*
8D\J	.	.	8a\J	.	.	.	.	.	.	.	.	.	.	.	.	.	.	.	.	.	.	.	.	.	.	.	.	.
*Xtremolo	*	*	*Xtremolo	*	*	*	*	*	*	*	*	*	*	*	*	*	*	*	*	*	*	*	*	*	*	*	*	*
8E\L	.	.	4a\	.	4e/	.	4g/	.	4G\	qvi	qui	.	.	.	.	.	.	.	.	.	.	.	.	.	.	.	.	.
8E\J	.	.	.	.	.	.	.	.	.	.	.	.	.	.	.	.	.	.	.	.	.	.	.	.	.	.	.	.
=23	=23	=23	=23	=23	=23	=23	=23	=23	=23	=23	=23	=23	=23	=23	=23	=23	=23	=23	=23	=23	=23	=23	=23	=23	=23	=23	=23	=23
!	!	!	!	!	!	!	!LO:N:vis=8	!	!LO:SIC:o=8A\L	!	!	!	!	!	!	!	!	!	!	!	!	!	!	!	!LO:N:vis=00	!	!LO:N:vis=00	!
4F#\	6	.	4a\	.	4f#/	.	8.a/L	.	(8A\L	tol-	tol-	.	.	.	.	.	.	.	.	.	.	.	.	.	0.r	.	0.r	.
.	.	.	.	.	.	.	.	.	16B\L	.	.	.	.	.	.	.	.	.	.	.	.	.	.	.	.	.	.	.
!	!	!	!	!	!	!	!	!	!LO:SIC:o=(16c#X\JJ	!	!	!	!	!	!	!	!	!	!	!	!	!	!	!	!	!	!	!
.	.	.	.	.	.	.	(32b/LL	.	16c#X\JJ	.	.	.	.	.	.	.	.	.	.	.	.	.	.	.	.	.	.	.
.	.	.	.	.	.	.	32cc#X/JJJ)	.	.	.	.	.	.	.	.	.	.	.	.	.	.	.	.	.	.	.	.	.
!	!	!	!	!	!LO:SIC:o=8d/L	!	!	!	!LO:SIC:o=8d\L)	!	!	!	!	!	!	!	!	!	!	!	!	!	!	!	!	!	!	!
4r	.	.	4r	.	(8d/L	.	(8dd\L	.	8d\L	.	.	.	.	.	.	.	.	.	.	.	.	.	.	.	.	.	.	.
!	!	!	!	!	!LO:SIC:o=(8c#X/	!	!	!	!LO:SIC:o=8c#\J	!	!	!	!	!	!	!	!	!	!	!	!	!	!	!	!	!	!	!
.	.	.	.	.	8c#X/	.	8cc#X\	.	8c#\J)	.	.	.	.	.	.	.	.	.	.	.	.	.	.	.	.	.	.	.
!	!	!	!	!	!	!	!LO:SIC:o=8b\)	!	!	!	!	!	!	!	!	!	!	!	!	!	!	!	!	!	!	!	!	!
4F#\	.	.	4f#\	.	8B/	.	8b\	.	8B\L	-lis	-lis	.	.	.	.	.	.	.	.	.	.	.	.	.	.	.	.	.
!	!	!	!	!	!	!	!LO:SIC:o=8a#X\J	!	!	!	!	!	!	!	!	!	!	!	!	!	!	!	!	!	!	!	!	!
.	.	.	.	.	8A#X/J)	.	8a#X\J)	.	8A#X\J	.	.	.	.	.	.	.	.	.	.	.	.	.	.	.	.	.	.	.
=24	=24	=24	=24	=24	=24	=24	=24	=24	=24	=24	=24	=24	=24	=24	=24	=24	=24	=24	=24	=24	=24	=24	=24	=24	=24	=24	=24	=24
4G\	.	.	4d\	.	16B/LL	.	16b\LL	.	16B\LL	pec-	pec-	.	.	.	.	.	.	.	.	.	.	.	.	.	.	.	.	.
.	.	.	.	.	16A#X/	.	16a#X\	.	16A#X\	.	.	.	.	.	.	.	.	.	.	.	.	.	.	.	.	.	.	.
.	.	.	.	.	16B/	.	16b\	.	16B\	.	.	.	.	.	.	.	.	.	.	.	.	.	.	.	.	.	.	.
.	.	.	.	.	16c#X/JJ	.	16cc#X\JJ	.	16c#X\JJ	.	.	.	.	.	.	.	.	.	.	.	.	.	.	.	.	.	.	.
!	!	!	!	!	!LO:SIC:o=8f#L 8d/	!	!	!	!	!	!	!	!	!	!	!	!	!	!	!	!	!	!	!	!	!	!	!
4r	.	.	4r	.	8d'/L	.	8dd'\L	.	8d\L	-ca-	-ca-	.	.	.	.	.	.	.	.	.	.	.	.	.	.	.	.	.
!	!	!	!	!	!LO:SIC:o=8B/	!	!	!	!	!	!	!	!	!	!	!	!	!	!	!	!	!	!	!	!	!	!	!
.	.	.	.	.	8B'/	.	8b'\	.	8B\J	.	.	.	.	.	.	.	.	.	.	.	.	.	.	.	.	.	.	.
!	!	!	!	!	!LO:SIC:o=8e/	!	!	!	!	!	!	!	!	!	!	!	!	!	!	!	!	!	!	!	!	!	!	!
8G\L	.	.	4d\	.	8e'/	.	8g'\	.	8G\L	-ta	-ta	.	.	.	.	.	.	.	.	.	.	.	.	.	.	.	.	.
!	!	!	!	!	!LO:SIC:o=8d/J	!	!	!	!	!	!	!	!	!	!	!	!	!	!	!	!	!	!	!	!	!	!	!
8G#X\J	.	.	.	.	8d'/J	.	8f#'\J	.	8F#\J	.	.	.	.	.	.	.	.	.	.	.	.	.	.	.	.	.	.	.
=25	=25	=25	=25	=25	=25	=25	=25	=25	=25	=25	=25	=25	=25	=25	=25	=25	=25	=25	=25	=25	=25	=25	=25	=25	=25	=25	=25	=25
!	!	!	!	!	!	!	!	!	!	!	!	!LO:N:vis=00	!	!	!LO:N:vis=00	!	!	!LO:N:vis=00	!	!	!	!	!	!	!	!	!	!
4A\	.	.	4a\	.	4d/	.	4f#/	.	4F#\	mun-	mun-	0.r	.	.	0.r	.	.	0.r	.	.	.	.	.	.	.	.	.	.
.	.	.	.	.	.	.	16qqe/LL	.	16qqE/LL	.	.	.	.	.	.	.	.	.	.	.	.	.	.	.	.	.	.	.
.	.	.	.	.	.	.	16qqf#/JJ	.	16qqF#/JJ	.	.	.	.	.	.	.	.	.	.	.	.	.	.	.	.	.	.	.
4E\	.	.	4a\	.	4c#X/	.	4e/	.	4E\	-di	-di:	.	.	.	.	.	.	.	.	.	.	.	.	.	.	.	.	.
4AA/	.	.	4r	.	4r	.	4r	.	4r	.	.	.	.	.	.	.	.	.	.	.	.	.	.	.	.	.	.	.
!	!	!	!	!	!LO:LB:g=original	!	!	!	!	!	!	!	!	!	!	!	!	!	!	!	!	!	!	!	!	!	!	!
=26	=26	=26	=26	=26	=26	=26	=26	=26	=26	=26	=26	=26	=26	=26	=26	=26	=26	=26	=26	=26	=26	=26	=26	=26	=26	=26	=26	=26
!	!	!	!	!	!	!	!	!	!LO:SIC:o=4.E\	!	!	!	!	!	!	!	!	!	!	!	!LO:N:vis=00	!	!LO:N:vis=00	!	!	!	!	!
4AA/	.	.	2c#X\	.	(8g/L	.	4.ee\	.	(4.E\	par-	par-	.	.	.	.	.	.	.	.	.	0.r	.	0.r	.	.	.	.	.
.	.	.	.	.	8A/)	.	.	.	.	.	.	.	.	.	.	.	.	.	.	.	.	.	.	.	.	.	.	.
4r	.	.	.	.	(8g/	.	.	.	.	.	.	.	.	.	.	.	.	.	.	.	.	.	.	.	.	.	.	.
!	!	!	!	!	!	!	!	!	!LO:SIC:o=(16F#\LL	!	!	!	!	!	!	!	!	!	!	!	!	!	!	!	!	!	!	!
.	.	.	.	.	8A/)	.	(16ff#\LL	.	16F#\LL	.	.	.	.	.	.	.	.	.	.	.	.	.	.	.	.	.	.	.
.	.	.	.	.	.	.	16ee\JJ	.	16E\JJ	.	.	.	.	.	.	.	.	.	.	.	.	.	.	.	.	.	.	.
!	!	!	!	!	!	!	!	!	!LO:SIC:o=16D/LL)	!	!	!	!	!	!	!	!	!	!	!	!	!	!	!	!	!	!	!
4Gn\	.	.	4e\	.	(8g/	.	16dd\LL	.	16D/LL	.	.	.	.	.	.	.	.	.	.	.	.	.	.	.	.	.	.	.
!	!	!	!	!	!	!	!	!	!LO:SIC:o=16C#X/JJ	!	!	!	!	!	!	!	!	!	!	!	!	!	!	!	!	!	!	!
.	.	.	.	.	.	.	16cc#X\	.	16C#X/JJ)	.	.	.	.	.	.	.	.	.	.	.	.	.	.	.	.	.	.	.
.	.	.	.	.	8A/J)	.	16b\	.	16BB/LL	-ce	-ce	.	.	.	.	.	.	.	.	.	.	.	.	.	.	.	.	.
.	.	.	.	.	.	.	16a\JJ)	.	16AA/JJ	.	.	.	.	.	.	.	.	.	.	.	.	.	.	.	.	.	.	.
=27	=27	=27	=27	=27	=27	=27	=27	=27	=27	=27	=27	=27	=27	=27	=27	=27	=27	=27	=27	=27	=27	=27	=27	=27	=27	=27	=27	=27
!	!	!	!	!	!	!	!	!	!	!	!	!	!	!	!	!	!	!	!	!	!	!	!	!	!LO:N:vis=00	!	!LO:N:vis=00	!
4F#\	.	.	4d\	.	(8f#/L	.	4dd\	.	(4D\	no-	no-	.	.	.	.	.	.	.	.	.	.	.	.	.	0.r	.	0.r	.
.	.	.	.	.	8A/)	.	.	.	.	.	.	.	.	.	.	.	.	.	.	.	.	.	.	.	.	.	.	.
!	!	!	!	!	!LO:SIC:v:o=(8c/	!	!	!	!	!	!	!	!	!	!	!	!	!	!	!	!	!	!	!	!	!	!	!
4E\	.	.	4a\	.	(8c#/	.	4ee\	.	4E\)	.	.	.	.	.	.	.	.	.	.	.	.	.	.	.	.	.	.	.
.	.	.	.	.	8A/)	.	.	.	.	.	.	.	.	.	.	.	.	.	.	.	.	.	.	.	.	.	.	.
4D\	.	.	4a\	.	(8d/	.	4ff#\	.	4F#\	-bis	-bis	.	.	.	.	.	.	.	.	.	.	.	.	.	.	.	.	.
.	.	.	.	.	8A/J)	.	.	.	.	.	.	.	.	.	.	.	.	.	.	.	.	.	.	.	.	.	.	.
!	!	!	!	!	!	!	!	!	!LO:LB:g=original	!	!	!	!	!	!	!	!	!	!	!	!	!	!	!	!	!	!	!
=28	=28	=28	=28	=28	=28	=28	=28	=28	=28	=28	=28	=28	=28	=28	=28	=28	=28	=28	=28	=28	=28	=28	=28	=28	=28	=28	=28	=28
.	.	.	.	.	.	.	16qqaa/	.	16qqA/	.	.	.	.	.	.	.	.	.	.	.	.	.	.	.	.	.	.	.
4C#X/	.	.	2a\	.	(8e/L	.	2gg\	.	4.G\	Do-	Do-	.	.	.	.	.	.	.	.	.	.	.	.	.	.	.	.	.
.	.	.	.	.	8A/)	.	.	.	.	.	.	.	.	.	.	.	.	.	.	.	.	.	.	.	.	.	.	.
!	!	!	!	!	!LO:SIC:o=(8e 8c/	!	!	!	!	!	!	!	!	!	!	!	!	!	!	!	!	!	!	!	!	!	!	!
4AA/	.	.	.	.	(8e/	.	.	.	.	.	.	.	.	.	.	.	.	.	.	.	.	.	.	.	.	.	.	.
.	.	.	.	.	8A/)	.	.	.	8G\	-mi-	-mi-	.	.	.	.	.	.	.	.	.	.	.	.	.	.	.	.	.
4D\	.	.	4a\	.	(8d/	.	4ff#\	.	4F#\	-ne	-ne,	.	.	.	.	.	.	.	.	.	.	.	.	.	.	.	.	.
.	.	.	.	.	8A/J)	.	.	.	.	.	.	.	.	.	.	.	.	.	.	.	.	.	.	.	.	.	.	.
=29	=29	=29	=29	=29	=29	=29	=29	=29	=29	=29	=29	=29	=29	=29	=29	=29	=29	=29	=29	=29	=29	=29	=29	=29	=29	=29	=29	=29
!	!	!	!	!	!LO:TX:t=P:problem:tt. 29-31 zapisane repetycją	!	!	!	!	!	!	!LO:N:vis=00	!	!	!LO:N:vis=00	!	!	!LO:N:vis=00	!	!	!	!	!	!	!	!	!	!
!	!	!	!LO:SIC:v:o=2c\	!	!LO:SIC:o=(8g/Lyy	!	!	!	!LO:SIC:o=4.E\	!	!	!	!	!	!	!	!	!	!	!	!	!	!	!	!	!	!	!
4AA/	.	.	2c#\	.	(8g/L	.	4.ee\	.	(4.E\	par-	par-	0.r	.	.	0.r	.	.	0.r	.	.	.	.	.	.	.	.	.	.
!	!	!	!	!	!LO:SIC:o=8A/)yy	!	!	!	!	!	!	!	!	!	!	!	!	!	!	!	!	!	!	!	!	!	!	!
.	.	.	.	.	8A/)	.	.	.	.	.	.	.	.	.	.	.	.	.	.	.	.	.	.	.	.	.	.	.
!	!	!	!	!	!LO:SIC:o=(8g/yy	!	!	!	!	!	!	!	!	!	!	!	!	!	!	!	!	!	!	!	!	!	!	!
4r	.	.	.	.	(8g/	.	.	.	.	.	.	.	.	.	.	.	.	.	.	.	.	.	.	.	.	.	.	.
!	!	!	!	!	!LO:SIC:o=8A/)yy	!	!	!	!	!	!	!	!	!	!	!	!	!	!	!	!	!	!	!	!	!	!	!
.	.	.	.	.	8A/)	.	(16ff#\LL	.	16F#\LL	.	.	.	.	.	.	.	.	.	.	.	.	.	.	.	.	.	.	.
!	!	!	!	!	!	!	!	!	!LO:SIC:o=(16E\JJ	!	!	!	!	!	!	!	!	!	!	!	!	!	!	!	!	!	!	!
.	.	.	.	.	.	.	16ee\JJ	.	16E\JJ	.	.	.	.	.	.	.	.	.	.	.	.	.	.	.	.	.	.	.
!	!	!	!	!	!LO:SIC:o=(8g/yy	!	!	!	!	!	!	!	!	!	!	!	!	!	!	!	!	!	!	!	!	!	!	!
4G\	.	.	4e\	.	(8g/	.	16dd\LL	.	16D\LL	.	.	.	.	.	.	.	.	.	.	.	.	.	.	.	.	.	.	.
!	!	!	!	!	!	!	!LO:SIC:v:o=16cc\)	!	!	!	!	!	!	!	!	!	!	!	!	!	!	!	!	!	!	!	!	!
.	.	.	.	.	.	.	16cc#\	.	16C#X\JJ)	.	.	.	.	.	.	.	.	.	.	.	.	.	.	.	.	.	.	.
!	!	!	!	!	!LO:SIC:o=8A/J)yy	!	!	!	!	!	!	!	!	!	!	!	!	!	!	!	!	!	!	!	!	!	!	!
.	.	.	.	.	8A/J)	.	16b\	.	16BB/LL	-ce	-ce,	.	.	.	.	.	.	.	.	.	.	.	.	.	.	.	.	.
!	!	!	!	!	!	!	!LO:SIC:o=16a\JJ	!	!	!	!	!	!	!	!	!	!	!	!	!	!	!	!	!	!	!	!	!
.	.	.	.	.	.	.	16a\JJ)	.	16AA/JJ	.	.	.	.	.	.	.	.	.	.	.	.	.	.	.	.	.	.	.
!	!	!	!	!	!	!	!LO:LB:g=original	!	!	!	!	!	!	!	!	!	!	!	!	!	!	!	!	!	!	!	!	!
=30	=30	=30	=30	=30	=30	=30	=30	=30	=30	=30	=30	=30	=30	=30	=30	=30	=30	=30	=30	=30	=30	=30	=30	=30	=30	=30	=30	=30
!	!	!	!	!	!LO:SIC:o=(8f#/Lyy	!	!	!	!	!	!	!	!	!	!	!	!	!	!	!	!LO:N:vis=0	!	!LO:N:vis=0	!	!	!	!	!
4F#\	.	.	4d\	.	(8f#/L	.	4dd\	.	(4D\	par-	par-	.	.	.	.	.	.	.	.	.	1.r	.	1.r	.	.	.	.	.
!	!	!	!	!	!LO:SIC:o=8A/)yy	!	!	!	!	!	!	!	!	!	!	!	!	!	!	!	!	!	!	!	!	!	!	!
.	.	.	.	.	8A/)	.	.	.	.	.	.	.	.	.	.	.	.	.	.	.	.	.	.	.	.	.	.	.
!	!	!	!	!	!LO:SIC:v:o=(8c/yy	!	!	!	!	!	!	!	!	!	!	!	!	!	!	!	!	!	!	!	!	!	!	!
4E\	.	.	4a\	.	(8c#/	.	4ee\	.	4E\)	.	.	.	.	.	.	.	.	.	.	.	.	.	.	.	.	.	.	.
!	!	!	!	!	!LO:SIC:o=8A/)yy	!	!	!	!	!	!	!	!	!	!	!	!	!	!	!	!	!	!	!	!	!	!	!
.	.	.	.	.	8A/)	.	.	.	.	.	.	.	.	.	.	.	.	.	.	.	.	.	.	.	.	.	.	.
!	!	!	!	!	!LO:SIC:o=(8d/yy	!	!	!	!	!	!	!	!	!	!	!	!	!	!	!	!	!	!	!	!	!	!	!
4D\	.	.	4a\	.	(8d/	.	4ff#\	.	4F#\	-ce	-ce	.	.	.	.	.	.	.	.	.	.	.	.	.	.	.	.	.
!	!	!	!	!	!LO:SIC:o=8A/J)yy	!	!	!	!	!	!	!	!	!	!	!	!	!	!	!	!	!	!	!	!	!	!	!
.	.	.	.	.	8A/J)	.	.	.	.	.	.	.	.	.	.	.	.	.	.	.	.	.	.	.	.	.	.	.
=31	=31	=31	=31	=31	=31	=31	=31	=31	=31	=31	=31	=31	=31	=31	=31	=31	=31	=31	=31	=31	=31	=31	=31	=31	=31	=31	=31	=31
.	.	.	.	.	.	.	16qqaa/	.	8qqA/	.	.	.	.	.	.	.	.	.	.	.	.	.	.	.	.	.	.	.
!	!	!	!	!	!LO:SIC:o=(8e/Lyy	!	!	!	!	!	!	!	!	!	!	!	!	!	!	!	!	!	!	!	!LO:N:vis=0	!	!LO:N:vis=0	!
4G\	.	.	2a\	.	(8e/L	.	4gg\	.	(4G\	no-	no-	.	.	.	.	.	.	.	.	.	.	.	.	.	1.r	.	1.r	.
!	!	!	!	!	!LO:SIC:o=8A/)yy	!	!	!	!	!	!	!	!	!	!	!	!	!	!	!	!	!	!	!	!	!	!	!
.	.	.	.	.	8A/)	.	.	.	.	.	.	.	.	.	.	.	.	.	.	.	.	.	.	.	.	.	.	.
!	!	!	!	!	!LO:SIC:o=(y8eyy 8c/yy	!	!	!	!	!	!	!	!	!	!	!	!	!	!	!	!	!	!	!	!	!	!	!
4E\	.	.	.	.	(8e/	.	4ee\	.	4E\)	.	.	.	.	.	.	.	.	.	.	.	.	.	.	.	.	.	.	.
!	!	!	!	!	!LO:SIC:o=8A/)yy	!	!	!	!	!	!	!	!	!	!	!	!	!	!	!	!	!	!	!	!	!	!	!
.	.	.	.	.	8A/)	.	.	.	.	.	.	.	.	.	.	.	.	.	.	.	.	.	.	.	.	.	.	.
!	!	!	!	!	!LO:SIC:o=(8d/yy	!	!	!	!	!	!	!	!	!	!	!	!	!	!	!	!	!	!	!	!	!	!	!
4F#\	.	.	4a\	.	(8d/	.	4ff#\	.	4F#\	-bis	-bis	.	.	.	.	.	.	.	.	.	.	.	.	.	.	.	.	.
!	!	!	!	!	!LO:SIC:o=8A/J)yy	!	!	!	!	!	!	!	!	!	!	!	!	!	!	!	!	!	!	!	!	!	!	!
.	.	.	.	.	8A/J)	.	.	.	.	.	.	.	.	.	.	.	.	.	.	.	.	.	.	.	.	.	.	.
=32	=32	=32	=32	=32	=32	=32	=32	=32	=32	=32	=32	=32	=32	=32	=32	=32	=32	=32	=32	=32	=32	=32	=32	=32	=32	=32	=32	=32
!	!	!	!	!	!	!	!	!	!LO:SIC:o=16F#\LL	!	!	!	!	!	!	!	!	!	!	!	!	!	!	!	!	!	!	!
4G\	.	.	8b\L	.	(8g/L	.	(16ff#\LL	.	(16F#\LL	Do-	Do-	.	.	.	.	.	.	.	.	.	2.r	.	2.r	.	.	.	.	.
.	.	.	.	.	.	.	16ee\)	.	16E\	.	.	.	.	.	.	.	.	.	.	.	.	.	.	.	.	.	.	.
!	!	!	!	!	!	!	!	!	!LO:SIC:v:o=16A\	!	!	!	!	!	!	!	!	!	!	!	!	!	!	!	!	!	!	!
.	.	.	8b\J	.	8A/)	.	(16gg\	.	16G\	.	.	.	.	.	.	.	.	.	.	.	.	.	.	.	.	.	.	.
.	.	.	.	.	.	.	16ee\JJ)	.	16E\JJ	.	.	.	.	.	.	.	.	.	.	.	.	.	.	.	.	.	.	.
!	!	!	!	!	!	!	!	!	!LO:SIC:o=4D\	!	!	!	!	!	!	!	!	!	!	!	!	!	!	!	!	!	!	!
4A\	4	.	4a\	.	(8f#/	.	4dd\	.	4D\)	.	.	.	.	.	.	.	.	.	.	.	.	.	.	.	.	.	.	.
.	.	.	.	.	8A/)	.	.	.	.	.	.	.	.	.	.	.	.	.	.	.	.	.	.	.	.	.	.	.
4AA/	#	.	4a\	.	(8e/	.	4cc#X\	.	4C#X/	-mi-	-mi-	.	.	.	.	.	.	.	.	.	.	.	.	.	.	.	.	.
.	.	.	.	.	8A/J)	.	.	.	.	.	.	.	.	.	.	.	.	.	.	.	.	.	.	.	.	.	.	.
!LO:LB:g=original	!	!	!LO:LB:g=original	!	!	!	!	!	!	!	!	!	!	!	!	!	!	!	!	!	!LO:LB:g=original	!	!LO:LB:g=original	!	!	!	!	!
=33	=33	=33	=33	=33	=33	=33	=33	=33	=33	=33	=33	=33	=33	=33	=33	=33	=33	=33	=33	=33	=33	=33	=33	=33	=33	=33	=33	=33
!	!	!	!	!LO:DY:a:t=for&colon;	!LO:TX:t=P:problem:mixed beam	!LO:DY:a:t=for&colon;	!	!LO:DY:a:t=forte	!	!	!	!LO:N:vis=00	!	!	!LO:N:vis=00	!	!	!LO:N:vis=00	!	!	!	!	!	!	!	!	!	!
4D\	.	.	8a\L	f	8f#/L	f	8dd\L	f	4D\	-ne	-ne.	0.r	.	.	0.r	.	.	0.r	.	.	4d\	.	4a\	.	8r	.	8r	.
!	!	!	!	!	!	!	!	!	!	!	!	!	!	!	!	!	!	!	!	!	!	!	!	!	!	!	!	!LO:MO:null:mod=!LO&colon;DY&colon;ed=brack
!	!	!	!	!	!	!	!	!	!	!	!	!	!	!	!	!	!	!	!	!	!	!	!	!	!	!	!	!
!	!	!	!	!	!	!	!	!	!	!	!	!	!	!	!	!	!	!	!	!	!	!	!	!	!	!LO:DY:a:t=for&colon;	!	!LO:MO:null:mod=f
.	.	.	8a\	.	8ff#\	.	8ddd\J	.	.	.	.	.	.	.	.	.	.	.	.	.	.	.	.	.	8ff#\L	f	8ddd\	.
8r	.	.	8g\	.	8ee\	.	(16ddd\LL	.	4r	.	.	.	.	.	.	.	.	.	.	.	4r	.	4r	.	8ee\	.	(16ddd\LL	.
.	.	.	.	.	.	.	16ccc#X\)	.	.	.	.	.	.	.	.	.	.	.	.	.	.	.	.	.	.	.	16ccc#X\)	.
!LO:TX:t=P:problem:mixed beam	!	!	!	!	!	!	!	!	!	!	!	!	!	!	!	!	!	!	!	!	!	!	!	!	!	!	!	!
8D\L	6	.	8f#\	.	8dd\	.	(16ccc#\	.	.	.	.	.	.	.	.	.	.	.	.	.	.	.	.	.	8dd\	.	(16ccc#\	.
.	.	.	.	.	.	.	16bb\JJ)	.	.	.	.	.	.	.	.	.	.	.	.	.	.	.	.	.	.	.	16bb\JJ)	.
8E\	6 4	.	8e\	.	8cc#X\	.	(16bb\LL	.	4r	.	.	.	.	.	.	.	.	.	.	.	4r	.	4r	.	8cc#X\	.	(16bb\LL	.
.	.	.	.	.	.	.	16aa\)	.	.	.	.	.	.	.	.	.	.	.	.	.	.	.	.	.	.	.	16aa\)	.
!	!	!LO:DY:a:t=forte	!	!	!	!	!	!	!	!	!	!	!	!	!	!	!	!	!	!	!	!	!	!	!	!	!	!
8EE/J	5 #	f	8d\J	.	8b\J	.	(16aa\	.	.	.	.	.	.	.	.	.	.	.	.	.	.	.	.	.	8b\J	.	(16aa\	.
.	.	.	.	.	.	.	16gg#X\JJ)	.	.	.	.	.	.	.	.	.	.	.	.	.	.	.	.	.	.	.	16gg#X\JJ)	.
=34	=34	=34	=34	=34	=34	=34	=34	=34	=34	=34	=34	=34	=34	=34	=34	=34	=34	=34	=34	=34	=34	=34	=34	=34	=34	=34	=34	=34
!	!	!	!	!	!	!	!	!	!LO:TX:a:t=3:mod=	!	!	!	!	!	!	!	!	!	!	!	!	!	!	!	!	!	!	!
!	!	!	!	!	!LO:SIC:v:o=8cc\L	!	!	!	!LO:N:vis=0	!	!	!	!	!	!	!	!	!	!	!	!	!	!	!	!LO:SIC:v:o=8cc\L	!	!	!
4AA/	.	.	8e\L	.	8cc#\L	.	8aa\L	.	1.r	.	.	.	.	.	.	.	.	.	.	.	8a\	.	8a\	.	8cc#\L	.	8aa\L	.
.	.	.	8d\	.	8b\	.	8ggn\J	.	.	.	.	.	.	.	.	.	.	.	.	.	8r	.	8r	.	8b\	.	8ggn\J	.
8r	.	.	8c#X\	.	8a\	.	(16gg\LL	.	.	.	.	.	.	.	.	.	.	.	.	.	8r	.	8r	.	8a\	.	(16gg\LL	.
.	.	.	.	.	.	.	16ff#\)	.	.	.	.	.	.	.	.	.	.	.	.	.	.	.	.	.	.	.	16ff#\)	.
!LO:TX:t=P:problem:mixed beam	!	!	!	!	!	!	!	!	!	!	!	!	!	!	!	!	!	!	!	!	!	!	!	!	!	!	!	!
8Gn\L	6	.	8b\	.	8g\	.	(16ff#\	.	.	.	.	.	.	.	.	.	.	.	.	.	8g\L	.	8b\L	.	8g\	.	(16ff#\	.
.	.	.	.	.	.	.	16ee\JJ)	.	.	.	.	.	.	.	.	.	.	.	.	.	.	.	.	.	.	.	16ee\JJ)	.
!	!	!	!	!	!	!	!	!	!	!	!	!	!	!	!	!	!	!	!	!	!	!	!	!	!	!	!LO:SIC:o=16ee\LL	!
8A\	6 4	.	8a\	.	8f#\	.	(16ee\LL	.	.	.	.	.	.	.	.	.	.	.	.	.	8a\	.	8a\	.	8f#\	.	(16ee\LL	.
!	!	!	!	!	!	!	!	!	!	!	!	!	!	!	!	!	!	!	!	!	!	!	!	!	!	!	!LO:SIC:o=16dd\	!
.	.	.	.	.	.	.	16dd\)	.	.	.	.	.	.	.	.	.	.	.	.	.	.	.	.	.	.	.	16dd\)	.
!	!	!	!	!	!	!	!	!	!	!	!	!	!	!	!	!	!	!	!	!	!	!	!	!	!	!	!LO:SIC:o=16dd\	!
8AA/J	5 #	.	8g\J	.	8e\J	.	(16dd\	.	.	.	.	.	.	.	.	.	.	.	.	.	8a\J	.	8a\J	.	8e\J	.	(16dd\	.
!	!	!	!	!	!	!	!	!	!	!	!	!	!	!	!	!	!	!	!	!	!	!	!	!	!	!	!LO:SIC:o=16cc#X\JJ	!
.	.	.	.	.	.	.	16cc#X\JJ)	.	.	.	.	.	.	.	.	.	.	.	.	.	.	.	.	.	.	.	16cc#X\JJ)	.
=35	=35	=35	=35	=35	=35	=35	=35	=35	=35	=35	=35	=35	=35	=35	=35	=35	=35	=35	=35	=35	=35	=35	=35	=35	=35	=35	=35	=35
8D\L	.	.	8a\L	.	8f#/L	.	(16dd\LL	.	.	.	.	.	.	.	.	.	.	.	.	.	8d\L	.	8a\L	.	8f#/L	.	8dd\L	.
.	.	.	.	.	.	.	16a\)	.	.	.	.	.	.	.	.	.	.	.	.	.	.	.	.	.	.	.	.	.
8G\J	.	.	16g\L	.	8g/J	.	(16b\	.	.	.	.	.	.	.	.	.	.	.	.	.	8g\J	.	8b\J	.	8g/J	.	8ee\J	.
.	.	.	16b\JJ	.	.	.	16ee\JJ)	.	.	.	.	.	.	.	.	.	.	.	.	.	.	.	.	.	.	.	.	.
4A\	4	.	4a\	.	4f#/	.	4dd\	.	.	.	.	.	.	.	.	.	.	.	.	.	4a\	.	4a\	.	4f#/	.	4dd\	.
4AA/	#	.	4a\	.	4e/	.	4cc#X\	.	.	.	.	.	.	.	.	.	.	.	.	.	4a\	.	4a\	.	4e/	.	4cc#X\	.
!	!	!	!	!	!	!	!	!	!	!	!	!	!	!	!	!	!	!	!	!	!	!	!	!	!	!	!LO:LB:g=original	!
=36	=36	=36	=36	=36	=36	=36	=36	=36	=36	=36	=36	=36	=36	=36	=36	=36	=36	=36	=36	=36	=36	=36	=36	=36	=36	=36	=36	=36
8D\L	.	.	8a\L	.	8f#/L	.	8dd\L	.	2.r	.	.	.	.	.	.	.	.	.	.	.	8d/L	.	8a\L	.	8f#/L	.	8dd\L	.
!	!	!	!	!	!	!	!LO:TUP:a:problem:klamra łukowa	!	!	!	!	!	!	!	!	!	!	!	!	!	!	!	!	!	!LO:TUP:b:problem:klamra łukowa	!	!LO:TUP:a:problem:klamra łukowa	!
8AA\J	.	.	8f#\J	.	8a/J	.	24ff#\L	.	.	.	.	.	.	.	.	.	.	.	.	.	8d/J	.	8a\J	.	24a/L	.	24ff#\L	.
.	.	.	.	.	.	.	24gg\	.	.	.	.	.	.	.	.	.	.	.	.	.	.	.	.	.	24b/	.	24gg\	.
.	.	.	.	.	.	.	24ff#\JJ	.	.	.	.	.	.	.	.	.	.	.	.	.	.	.	.	.	24a/JJ	.	24ff#\JJ	.
4DD/	.	.	4a\	.	4f#/	.	4dd\	.	.	.	.	.	.	.	.	.	.	.	.	.	4d/	.	4a\	.	4f#/	.	4dd\	.
4r	.	.	4r	.	4r	.	4r	.	.	.	.	.	.	.	.	.	.	.	.	.	4r	.	4r	.	4r	.	4r	.
!	!	!	!	!	!	!	!LO:LB:g=original	!	!LO:LB:g=original	!	!	!	!	!	!	!	!	!	!	!	!	!	!	!	!	!	!	!
=37	=37	=37	=37	=37	=37	=37	=37	=37	=37	=37	=37	=37	=37	=37	=37	=37	=37	=37	=37	=37	=37	=37	=37	=37	=37	=37	=37	=37
*tremolo	*	*	*tremolo	*	*	*	*	*	*	*	*	*	*	*	*	*	*	*	*	*	*	*	*	*	*	*	*	*
!	!	!	!	!LO:MO:null:mod=!LO&colon;DY&colon;ed=brack	!	!LO:MO:null:mod=!LO&colon;DY&colon;ed=brack	!	!	!	!	!	!	!	!	!	!	!	!	!	!	!	!	!	!	!	!	!	!
!	!	!	!	!	!	!	!	!LO:DY:a:t=pi&colon;	!	!	!	!LO:N:vis=00	!	!	!LO:N:vis=00	!	!	!LO:N:vis=00	!	!	!LO:TX:a:t=9:mod=	!	!LO:TX:a:t=9:mod=	!	!LO:TX:a:t=5:mod=	!	!LO:TX:a:t=5:mod=	!
!	!	!	!	!LO:MO:null:mod=p	!LO:TX:b:i:t= :mod=[dolce]	!LO:MO:null:mod=p	!LO:TX:b:i:t=dolce	!	!LO:SIC:o=4D\	!	!	!	!	!	!	!	!	!	!	!	!LO:N:vis=00	!	!LO:N:vis=00	!	!LO:N:vis=00	!	!LO:N:vis=00	!
8D\L	.	.	8a\L	.	4d/	.	4dd\	p	(4D\	A-	A-	0.r	.	.	0.r	.	.	0.r	.	.	0.r	.	0.r	.	0.r	.	0.r	.
8D\	.	.	8a\	.	.	.	.	.	.	.	.	.	.	.	.	.	.	.	.	.	.	.	.	.	.	.	.	.
!	!	!	!	!	!	!	!	!	!LO:SIC:o=4F#\	!	!	!	!	!	!	!	!	!	!	!	!	!	!	!	!	!	!	!
8D\	.	.	8a\	.	4f#/	.	4ff#\	.	4F#\)	.	.	.	.	.	.	.	.	.	.	.	.	.	.	.	.	.	.	.
*	*	*	*	*	*	*	*	*	*	*	*	*	*	*	*	*	*	*	*	*	*	*	*	*	*	*	*	*
8D\J	.	.	8a\	.	.	.	.	.	.	.	.	.	.	.	.	.	.	.	.	.	.	.	.	.	.	.	.	.
*Xtremolo	*	*	*	*	*	*	*	*	*	*	*	*	*	*	*	*	*	*	*	*	*	*	*	*	*	*	*	*
!	!	!	!	!	!	!	!LO:TX:b:i:t=dolce:mod=	!	!	!	!	!	!	!	!	!	!	!	!	!	!	!	!	!	!	!	!	!
8F#\L	.	.	8a\	.	8a/L	.	8aa\L	.	8A\L	gnus	gnus	.	.	.	.	.	.	.	.	.	.	.	.	.	.	.	.	.
8F#\J	.	.	8a\J	.	8b/J	.	8bb\J	.	8B\J	.	.	.	.	.	.	.	.	.	.	.	.	.	.	.	.	.	.	.
=38	=38	=38	=38	=38	=38	=38	=38	=38	=38	=38	=38	=38	=38	=38	=38	=38	=38	=38	=38	=38	=38	=38	=38	=38	=38	=38	=38	=38
!	!	!	!	!	!	!	!	!	!LO:SIC:o=(8A\L	!	!	!	!	!	!	!	!	!	!	!	!	!	!	!	!	!	!	!
8E\L	.	.	8a\L	.	8a/L	.	8aa\L	.	8A\L	De-	De-	.	.	.	.	.	.	.	.	.	.	.	.	.	.	.	.	.
!	!	!	!	!	!	!	!	!	!LO:SIC:o=8E\J)	!	!	!	!	!	!	!	!	!	!	!	!	!	!	!	!	!	!	!
8E\	.	.	8a\	.	8e/J	.	8ee\J	.	8E\J	.	.	.	.	.	.	.	.	.	.	.	.	.	.	.	.	.	.	.
!LO:SIC:v:o=8C\	!	!	!	!	!	!	!	!	!	!	!	!	!	!	!	!	!	!	!	!	!	!	!	!	!	!	!	!
8C#\	.	.	8a\	.	4g/	.	4gg\	.	4G\	-i	-i,	.	.	.	.	.	.	.	.	.	.	.	.	.	.	.	.	.
!LO:SIC:v:o=8C\	!	!	!	!	!	!	!	!	!	!	!	!	!	!	!	!	!	!	!	!	!	!	!	!	!	!	!	!
8C#\	.	.	8a\	.	.	.	.	.	.	.	.	.	.	.	.	.	.	.	.	.	.	.	.	.	.	.	.	.
8D\	.	.	8a\	.	4f#/	.	4ff#\	.	4F#\	qvi	qui	.	.	.	.	.	.	.	.	.	.	.	.	.	.	.	.	.
*	*	*	*	*	*	*	*	*	*	*	*	*	*	*	*	*	*	*	*	*	*	*	*	*	*	*	*	*
8D\J	.	.	8a\J	.	.	.	.	.	.	.	.	.	.	.	.	.	.	.	.	.	.	.	.	.	.	.	.	.
*	*	*	*Xtremolo	*	*	*	*	*	*	*	*	*	*	*	*	*	*	*	*	*	*	*	*	*	*	*	*	*
!	!	!	!	!	!LO:LB:g=original	!	!	!	!	!	!	!	!	!	!	!	!	!	!	!	!	!	!	!	!	!	!	!
=39	=39	=39	=39	=39	=39	=39	=39	=39	=39	=39	=39	=39	=39	=39	=39	=39	=39	=39	=39	=39	=39	=39	=39	=39	=39	=39	=39	=39
!LO:TX:t=P:problem:mixed beam	!	!	!	!	!	!	!	!	!LO:SIC:o=16F#\LL	!	!	!	!	!	!	!	!	!	!	!	!	!	!	!	!	!	!	!
8G\L	.	.	8b\L	.	8g/L	.	(16ff#\LL	.	(16F#\LL	toll-	tol-	.	.	.	.	.	.	.	.	.	.	.	.	.	.	.	.	.
!	!	!	!	!	!	!	!	!	!LO:SIC:o=(16E\	!	!	!	!	!	!	!	!	!	!	!	!	!	!	!	!	!	!	!
.	.	.	.	.	.	.	16ee\)	.	16E\	.	.	.	.	.	.	.	.	.	.	.	.	.	.	.	.	.	.	.
!	!	!	!	!	!	!	!	!	!LO:SIC:o=16G\)	!	!	!	!	!	!	!	!	!	!	!	!	!	!	!	!	!	!	!
8G\	.	.	8b\J	.	8f#/J	.	(16gg\	.	16G\	.	.	.	.	.	.	.	.	.	.	.	.	.	.	.	.	.	.	.
.	.	.	.	.	.	.	16ee\JJ)	.	16E\JJ	.	.	.	.	.	.	.	.	.	.	.	.	.	.	.	.	.	.	.
*	*	*	*tremolo	*	*	*	*	*	*	*	*	*	*	*	*	*	*	*	*	*	*	*	*	*	*	*	*	*
!	!	!	!	!	!	!	!	!	!LO:SIC:o=4D/	!	!	!	!	!	!	!	!	!	!	!	!	!	!	!	!	!	!	!
8A\	4	.	8a\L	.	4f#/	.	4dd\	.	4D/)	-is	.	.	.	.	.	.	.	.	.	.	.	.	.	.	.	.	.	.
8A\	.	.	8a\	.	.	.	.	.	.	.	.	.	.	.	.	.	.	.	.	.	.	.	.	.	.	.	.	.
8AA/	.	.	8a\	.	4e/	.	4cc#X\	.	4C#X/	.	-lis	.	.	.	.	.	.	.	.	.	.	.	.	.	.	.	.	.
*	*	*	*	*	*	*	*	*	*	*	*	*	*	*	*	*	*	*	*	*	*	*	*	*	*	*	*	*
8AA/J	#	.	8a\J	.	.	.	.	.	.	.	.	.	.	.	.	.	.	.	.	.	.	.	.	.	.	.	.	.
*	*	*	*Xtremolo	*	*	*	*	*	*	*	*	*	*	*	*	*	*	*	*	*	*	*	*	*	*	*	*	*
=40	=40	=40	=40	=40	=40	=40	=40	=40	=40	=40	=40	=40	=40	=40	=40	=40	=40	=40	=40	=40	=40	=40	=40	=40	=40	=40	=40	=40
!	!	!	!	!	!LO:SIC:o=8d/L	!	!	!	!	!	!	!	!	!	!	!	!	!	!	!	!	!	!	!	!	!	!	!
4D\	.	.	4a\	.	(8d/L	.	(8dd\L	.	8D\L	pec-	pec-	.	.	.	.	.	.	.	.	.	.	.	.	.	.	.	.	.
!	!	!	!	!	!LO:SIC:o=8f#/	!	!	!	!	!	!	!	!	!	!	!	!	!	!	!	!	!	!	!	!	!	!	!
.	.	.	.	.	8f#/)	.	8ff#\)	.	8F#\J	.	.	.	.	.	.	.	.	.	.	.	.	.	.	.	.	.	.	.
!	!	!	!	!	!LO:SIC:o=8a/	!	!	!	!	!	!	!	!	!	!	!	!	!	!	!	!	!	!	!	!	!	!	!
4r	.	.	4r	.	(8a/	.	(8aa\	.	8A\L	-ca-	-ca-	.	.	.	.	.	.	.	.	.	.	.	.	.	.	.	.	.
!	!	!	!	!	!LO:SIC:o=8f#/	!	!	!	!	!	!	!	!	!	!	!	!	!	!	!	!	!	!	!	!	!	!	!
.	.	.	.	.	8f#/)	.	8ff#\)	.	8F#\J	.	.	.	.	.	.	.	.	.	.	.	.	.	.	.	.	.	.	.
!	!	!	!	!	!LO:SIC:o=8dd/	!	!	!	!	!	!	!	!	!	!	!	!	!	!	!	!	!	!	!	!	!	!	!
4D\	.	.	4a\	.	(8dd/	.	(8ddd\	.	8d\L	-ta	-ta	.	.	.	.	.	.	.	.	.	.	.	.	.	.	.	.	.
!	!	!	!	!	!LO:SIC:o=8f#/J	!	!	!	!	!	!	!	!	!	!	!	!	!	!	!	!	!	!	!	!	!	!	!
.	.	.	.	.	8f#/J)	.	8ff#\J)	.	8F#\J	.	.	.	.	.	.	.	.	.	.	.	.	.	.	.	.	.	.	.
!	!	!	!LO:LB:g=original	!	!	!	!	!	!	!	!	!	!	!	!	!	!	!	!	!	!	!	!	!	!	!	!	!
=41	=41	=41	=41	=41	=41	=41	=41	=41	=41	=41	=41	=41	=41	=41	=41	=41	=41	=41	=41	=41	=41	=41	=41	=41	=41	=41	=41	=41
!	!	!	!	!	!	!	!	!	!	!	!	!LO:N:vis=00	!	!	!LO:N:vis=00	!	!	!LO:N:vis=00	!	!	!LO:N:vis=00	!	!LO:N:vis=00	!	!	!	!	!
4AA/	.	.	4a\	.	8.e/L	.	8.gg\L	.	8.G\L	mun-	mun-	0.r	.	.	0.r	.	.	0.r	.	.	0.r	.	0.r	.	2.r	.	2.r	.
.	.	.	.	.	32d/LL	.	32ff#\LL	.	32F#\LL	.	.	.	.	.	.	.	.	.	.	.	.	.	.	.	.	.	.	.
.	.	.	.	.	32e/JJJ	.	32gg\JJJ	.	32G\JJJ	.	.	.	.	.	.	.	.	.	.	.	.	.	.	.	.	.	.	.
4D\	.	.	4a\	.	4d/	.	4ff#\	.	4F#\	-di	-di:	.	.	.	.	.	.	.	.	.	.	.	.	.	.	.	.	.
.	.	.	.	.	.	.	.	.	.	.	.	.	.	.	.	.	.	.	.	.	.	.	.	.	.	.	.	.
4r	.	.	4r	.	4r	.	4r	.	4r	.	.	.	.	.	.	.	.	.	.	.	.	.	.	.	.	.	.	.
!LO:LB:g=original	!	!	!	!	!	!	!	!	!	!	!	!	!	!	!	!	!	!	!	!	!	!	!	!	!LO:LB:g=original	!	!	!
=42	=42	=42	=42	=42	=42	=42	=42	=42	=42	=42	=42	=42	=42	=42	=42	=42	=42	=42	=42	=42	=42	=42	=42	=42	=42	=42	=42	=42
!	!	!	!	!	!	!	!	!	!LO:SIC:o=4.F#\	!	!	!	!	!	!	!	!	!	!	!	!	!	!	!	!LO:SIC:o=2ccn\	!	!	!
4D\	.	.	2a\	.	(8cn/L	.	4.f#/	.	(4.F#\	ex-	ex-	.	.	.	.	.	.	.	.	.	.	.	.	.	2cc\	.	4.ff#\	.
.	.	.	.	.	8d/)	.	.	.	.	.	.	.	.	.	.	.	.	.	.	.	.	.	.	.	.	.	.	.
4r	.	.	.	.	(8c/	.	.	.	.	.	.	.	.	.	.	.	.	.	.	.	.	.	.	.	.	.	.	.
.	.	.	.	.	8d/)	.	16g/LL	.	16G\LL	.	.	.	.	.	.	.	.	.	.	.	.	.	.	.	.	.	(16gg\LL	.
!	!	!	!	!	!	!	!	!	!LO:SIC:o=(16A\JJ	!	!	!	!	!	!	!	!	!	!	!	!	!	!	!	!	!	!	!
.	.	.	.	.	.	.	16a/JJ	.	16A\JJ	.	.	.	.	.	.	.	.	.	.	.	.	.	.	.	.	.	16aa\JJ	.
4cn\	.	.	4f#\	.	(8c/	.	16g/LL	.	16G\LL	.	.	.	.	.	.	.	.	.	.	.	.	.	.	.	4cc\	.	16gg\LL	.
!	!	!	!	!	!	!	!	!	!LO:SIC:o=16F#\)	!	!	!	!	!	!	!	!	!	!	!	!	!	!	!	!	!	!LO:SIC:o=16ff#\)	!
.	.	.	.	.	.	.	16f#/	.	16F#\	.	.	.	.	.	.	.	.	.	.	.	.	.	.	.	.	.	16ff#\	.
.	.	.	.	.	8d/J)	.	16e/	.	16E\	.	.	.	.	.	.	.	.	.	.	.	.	.	.	.	.	.	16ee\	.
!	!	!	!	!	!	!	!	!	!LO:SIC:o=16D\JJ	!	!	!	!	!	!	!	!	!	!	!	!	!	!	!	!	!	!LO:SIC:o=16dd\JJ	!
.	.	.	.	.	.	.	16d/JJ	.	16D\JJ)	.	.	.	.	.	.	.	.	.	.	.	.	.	.	.	.	.	16dd\JJ)	.
!	!	!	!	!	!	!	!	!	!LO:LB:g=original	!	!	!	!	!	!	!	!	!	!	!	!	!	!	!	!	!	!	!
=43	=43	=43	=43	=43	=43	=43	=43	=43	=43	=43	=43	=43	=43	=43	=43	=43	=43	=43	=43	=43	=43	=43	=43	=43	=43	=43	=43	=43
4B\	.	.	4g\	.	(8B/L	.	4g/	.	(4G\	-au-	-au-	.	.	.	.	.	.	.	.	.	.	.	.	.	4b\	.	4gg\	.
.	.	.	.	.	8d/)	.	.	.	.	.	.	.	.	.	.	.	.	.	.	.	.	.	.	.	.	.	.	.
4A\	.	.	4d\	.	(8f#/	.	4a/	.	4A\)	.	.	.	.	.	.	.	.	.	.	.	.	.	.	.	4a\	.	4aa\	.
.	.	.	.	.	8d/)	.	.	.	.	.	.	.	.	.	.	.	.	.	.	.	.	.	.	.	.	.	.	.
4G\	.	.	4d\	.	(8g/	.	4b/	.	4B\	-di	-di	.	.	.	.	.	.	.	.	.	.	.	.	.	4g/	.	4bb\	.
.	.	.	.	.	8d/J)	.	.	.	.	.	.	.	.	.	.	.	.	.	.	.	.	.	.	.	.	.	.	.
=44	=44	=44	=44	=44	=44	=44	=44	=44	=44	=44	=44	=44	=44	=44	=44	=44	=44	=44	=44	=44	=44	=44	=44	=44	=44	=44	=44	=44
.	.	.	.	.	.	.	8qqdd/	.	.	.	.	.	.	.	.	.	.	.	.	.	.	.	.	.	.	.	.	.
!	!	!	!	!	!	!	!	!	!	!	!	!	!	!	!	!	!	!	!	!	!	!	!	!	!	!	!LO:SIC:o=2cccn\	!
4F#\	.	.	4d\	.	(8a/L	.	2ccn\	.	(2cn\	nos	nos	.	.	.	.	.	.	.	.	.	.	.	.	.	2a/	.	2ccc\	.
.	.	.	.	.	8d/)	.	.	.	.	.	.	.	.	.	.	.	.	.	.	.	.	.	.	.	.	.	.	.
4D\	.	.	4f#\	.	(8a/	.	.	.	.	.	.	.	.	.	.	.	.	.	.	.	.	.	.	.	.	.	.	.
.	.	.	.	.	8d/)	.	.	.	.	.	.	.	.	.	.	.	.	.	.	.	.	.	.	.	.	.	.	.
4G\	.	.	4d\	.	(8g/	.	4b\	.	4B\)	.	.	.	.	.	.	.	.	.	.	.	.	.	.	.	4g/	.	4bb\	.
.	.	.	.	.	8d/J)	.	.	.	.	.	.	.	.	.	.	.	.	.	.	.	.	.	.	.	.	.	.	.
=45	=45	=45	=45	=45	=45	=45	=45	=45	=45	=45	=45	=45	=45	=45	=45	=45	=45	=45	=45	=45	=45	=45	=45	=45	=45	=45	=45	=45
!	!	!	!	!	!	!	!	!	!	!	!	!LO:N:vis=00	!	!	!LO:N:vis=00	!	!	!LO:N:vis=00	!	!	!	!	!	!	!	!	!	!
4D\	.	.	4d\	.	(8a/L	.	4b/	.	8B\	Do-	Do-	0.r	.	.	0.r	.	.	0.r	.	.	2.r	.	2.r	.	4g/	.	4bb\	.
.	.	.	.	.	8d/)	.	.	.	8B\	-mi-	-mi-	.	.	.	.	.	.	.	.	.	.	.	.	.	.	.	.	.
4DD/	.	.	4d\	.	(8f#/	.	4a/	.	4A\	-ne	-ne,	.	.	.	.	.	.	.	.	.	.	.	.	.	4f#/	.	4aa\	.
.	.	.	.	.	8d/)	.	.	.	.	.	.	.	.	.	.	.	.	.	.	.	.	.	.	.	.	.	.	.
4r	.	.	4r	.	(8a/	.	4r	.	4r	.	.	.	.	.	.	.	.	.	.	.	.	.	.	.	4r	.	4r	.
.	.	.	.	.	8dJ)	.	.	.	.	.	.	.	.	.	.	.	.	.	.	.	.	.	.	.	.	.	.	.
!	!	!	!	!	!	!	!LO:LB:g=original	!	!	!	!	!	!	!	!	!	!	!	!	!	!	!	!	!	!	!	!	!
=46	=46	=46	=46	=46	=46	=46	=46	=46	=46	=46	=46	=46	=46	=46	=46	=46	=46	=46	=46	=46	=46	=46	=46	=46	=46	=46	=46	=46
!	!	!	!	!	!	!LO:MO:null:mod=!LO&colon;DY&colon;ed=brack	!	!	!	!	!	!	!	!	!	!	!	!	!	!	!	!	!	!LO:MO:null:mod=!LO&colon;DY&colon;ed=brack	!	!	!	!
!	!	!	!	!LO:DY:a:t=piano	!	!	!	!LO:DY:a:t=piano	!LO:SIC:o=4.F#\	!	!	!	!	!	!	!	!	!	!	!	!	!	!	!	!LO:TX:a:t=5:mod=	!	!LO:TX:a:t=5:mod=	!
!	!	!	!	!	!	!LO:MO:null:mod=p	!	!	!LO:N:vis=4	!	!	!	!	!	!	!	!	!	!	!	!	!LO:MO:null:mod=p	!	!LO:MO:null:mod=p	!LO:N:vis=00	!	!LO:N:vis=00	!
4D\	.	.	2a\	p	(8c/L	.	4.f#/	p	(4.F#\	ex-	ex-	.	.	.	.	.	.	.	.	.	4d/	.	4a\	.	0.r	.	0.r	.
.	.	.	.	.	8d/)	.	.	.	.	.	.	.	.	.	.	.	.	.	.	.	.	.	.	.	.	.	.	.
4r	.	.	.	.	(8c/	.	.	.	.	.	.	.	.	.	.	.	.	.	.	.	4r	.	4r	.	.	.	.	.
!	!	!	!	!	!	!	!	!	!LO:SIC:o=(16G\L	!	!	!	!	!	!	!	!	!	!	!	!	!	!	!	!	!	!	!
.	.	.	.	.	8d/)	.	16g/LL	.	16G\L	.	.	.	.	.	.	.	.	.	.	.	.	.	.	.	.	.	.	.
!	!	!	!	!	!	!	!	!	!LO:SIC:o=16A\J)	!	!	!	!	!	!	!	!	!	!	!	!	!	!	!	!	!	!	!
.	.	.	.	.	.	.	16a/JJ	.	16A\J	.	.	.	.	.	.	.	.	.	.	.	.	.	.	.	.	.	.	.
!	!	!	!	!	!	!	!	!	!	!	!	!	!	!	!	!	!	!	!	!	!	!LO:DY:a:t=piano	!	!	!	!	!	!
!	!	!	!	!	!	!	!	!	!	!	!	!	!	!	!	!	!	!	!	!	!	!LO:MO:mod=.	!	!	!	!	!	!
4c\	.	.	4f#\	.	(8c/	.	16g/LL	.	16G\LL	.	.	.	.	.	.	.	.	.	.	.	4d/	p	4a\	.	.	.	.	.
.	.	.	.	.	.	.	16f#/	.	16F#\	.	.	.	.	.	.	.	.	.	.	.	.	.	.	.	.	.	.	.
.	.	.	.	.	8d/J)	.	16e/	.	16E\	.	.	.	.	.	.	.	.	.	.	.	.	.	.	.	.	.	.	.
!	!	!	!	!	!	!	!	!	!LO:SIC:o=16D\JJ	!	!	!	!	!	!	!	!	!	!	!	!	!	!	!	!	!	!	!
.	.	.	.	.	.	.	16d/JJ	.	16D\JJ)	.	.	.	.	.	.	.	.	.	.	.	.	.	.	.	.	.	.	.
=47	=47	=47	=47	=47	=47	=47	=47	=47	=47	=47	=47	=47	=47	=47	=47	=47	=47	=47	=47	=47	=47	=47	=47	=47	=47	=47	=47	=47
4B\	.	.	4d\	.	(8B/L	.	4g/	.	4G\	-au-	-au-	.	.	.	.	.	.	.	.	.	4B\	.	4g\	.	.	.	.	.
.	.	.	.	.	8d/)	.	.	.	.	.	.	.	.	.	.	.	.	.	.	.	.	.	.	.	.	.	.	.
4A\	.	.	4d\	.	(8f#/	.	4a/	.	4A\	-di	-di	.	.	.	.	.	.	.	.	.	4d\	.	4a\	.	.	.	.	.
.	.	.	.	.	8d/)	.	.	.	.	.	.	.	.	.	.	.	.	.	.	.	.	.	.	.	.	.	.	.
4G\	.	.	4d\	.	(8g/	.	4b/	.	4B\	nos	nos,	.	.	.	.	.	.	.	.	.	4g\	.	4b\	.	.	.	.	.
.	.	.	.	.	8d/J)	.	.	.	.	.	.	.	.	.	.	.	.	.	.	.	.	.	.	.	.	.	.	.
=48	=48	=48	=48	=48	=48	=48	=48	=48	=48	=48	=48	=48	=48	=48	=48	=48	=48	=48	=48	=48	=48	=48	=48	=48	=48	=48	=48	=48
*	*	*	*tremolo	*	*	*	*	*	*	*	*	*	*	*	*	*	*	*	*	*	*	*	*	*	*	*	*	*
!	!	!	!	!	!	!	!	!	!LO:SIC:o=2c\	!	!	!	!	!	!	!	!	!	!	!	!	!	!	!	!	!	!	!
4F#\	.	.	8d\L	.	(8a/L	.	2cc\	.	(2c\	ex-	ex-	.	.	.	.	.	.	.	.	.	2d/	.	2a\	.	.	.	.	.
.	.	.	8d\	.	8d/)	.	.	.	.	.	.	.	.	.	.	.	.	.	.	.	.	.	.	.	.	.	.	.
4D\	.	.	8d\	.	(8a/	.	.	.	.	.	.	.	.	.	.	.	.	.	.	.	.	.	.	.	.	.	.	.
*	*	*	*	*	*	*	*	*	*	*	*	*	*	*	*	*	*	*	*	*	*	*	*	*	*	*	*	*
.	.	.	8d\J	.	8d/)	.	.	.	.	.	.	.	.	.	.	.	.	.	.	.	.	.	.	.	.	.	.	.
*	*	*	*Xtremolo	*	*	*	*	*	*	*	*	*	*	*	*	*	*	*	*	*	*	*	*	*	*	*	*	*
!	!	!	!	!	!	!	!	!	!LO:SIC:o=4B\	!	!	!	!	!	!	!	!	!	!	!	!	!	!	!	!	!	!	!
4G\	.	.	4d\	.	(8g/	.	4b\	.	4B\)	.	.	.	.	.	.	.	.	.	.	.	4g\	.	4b\	.	.	.	.	.
.	.	.	.	.	8d/J)	.	.	.	.	.	.	.	.	.	.	.	.	.	.	.	.	.	.	.	.	.	.	.
!	!	!	!	!	!LO:LB:g=original	!	!	!	!	!	!	!	!	!	!	!	!	!	!	!	!	!	!	!	!	!	!	!
=49	=49	=49	=49	=49	=49	=49	=49	=49	=49	=49	=49	=49	=49	=49	=49	=49	=49	=49	=49	=49	=49	=49	=49	=49	=49	=49	=49	=49
!	!	!	!	!	!	!	!	!	!	!	!	!LO:N:vis=00	!	!	!LO:N:vis=00	!	!	!LO:N:vis=00	!	!	!	!	!	!	!	!	!	!
4D/	.	.	4d\	.	(8f#/L	.	4a/	.	4A\	-au-	-au-	0.r	.	.	0.r	.	.	0.r	.	.	4d/	.	4a\	.	.	.	.	.
.	.	.	.	.	8d/)	.	.	.	.	.	.	.	.	.	.	.	.	.	.	.	.	.	.	.	.	.	.	.
4DD/	.	.	4cc\	.	(8a/	.	4ff#\	.	4F#\	-di	-di	.	.	.	.	.	.	.	.	.	4r	.	4r	.	.	.	.	.
.	.	.	.	.	8d/)	.	.	.	.	.	.	.	.	.	.	.	.	.	.	.	.	.	.	.	.	.	.	.
4GG/	.	.	4b\	.	(8b/	.	4gg\	.	4G\	nos	nos	.	.	.	.	.	.	.	.	.	4r	.	4r	.	.	.	.	.
.	.	.	.	.	8dd/J)	.	.	.	.	.	.	.	.	.	.	.	.	.	.	.	.	.	.	.	.	.	.	.
!	!	!	!	!	!	!	!	!	!LO:LB:g=original	!	!	!	!	!	!	!	!	!	!	!	!	!	!	!	!	!	!	!
=50	=50	=50	=50	=50	=50	=50	=50	=50	=50	=50	=50	=50	=50	=50	=50	=50	=50	=50	=50	=50	=50	=50	=50	=50	=50	=50	=50	=50
!	!	!	!	!	!LO:TUP:a:problem:klamra łukowa	!	!LO:TUP:a:problem:klamra łukowa	!	!	!	!	!	!	!	!	!	!	!	!	!	!LO:TX:a:t=1:mod=	!	!LO:TX:a:t=1:mod=	!	!	!	!	!
!	!	!	!	!	!	!	!	!	!LO:SIC:o=12A\L	!	!	!	!	!	!	!	!	!	!	!	!	!	!	!	!	!	!	!
4C/	.	.	4e\	.	12b\L	.	12ee\L	.	(12A\L	Do-	Do-	.	.	.	.	.	.	.	.	.	2.r	.	2.r	.	2.r	.	2.r	.
.	.	.	.	.	12a\	.	12dd\	.	12B\	.	.	.	.	.	.	.	.	.	.	.	.	.	.	.	.	.	.	.
.	.	.	.	.	12g\J	.	12cc\J	.	12c\J	.	.	.	.	.	.	.	.	.	.	.	.	.	.	.	.	.	.	.
!	!	!	!	!	!	!	!	!	!LO:SIC:o=4B\	!	!	!	!	!	!	!	!	!	!	!	!	!	!	!	!	!	!	!
4D/	4	.	4d\	.	4g/	.	4b\	.	4B\)	.	.	.	.	.	.	.	.	.	.	.	.	.	.	.	.	.	.	.
4DD/	3	.	4d\	.	4f#/	.	4a\	.	4A\	-mi-	-mi-	.	.	.	.	.	.	.	.	.	.	.	.	.	.	.	.	.
!	!	!	!	!	!	!	!	!	!	!	!	!	!	!	!	!	!	!	!	!	!LO:LB:g=original	!	!	!	!	!	!	!
=51	=51	=51	=51	=51	=51	=51	=51	=51	=51	=51	=51	=51	=51	=51	=51	=51	=51	=51	=51	=51	=51	=51	=51	=51	=51	=51	=51	=51
!	!	!	!	!	!	!	!LO:TX:t=P:problem:mixed beam	!	!	!	!	!	!	!	!	!	!	!	!	!	!	!	!	!	!	!	!	!
4GG/	.	.	4d\	.	4g/	.	8g/L	.	4G\	-ne	-ne.	.	.	.	.	.	.	.	.	.	4r	.	4r	.	4r	.	4r	.
!	!	!	!	!	!	!	!	!LO:DY:a:t=forte	!	!	!	!	!	!	!	!	!	!	!	!	!	!	!	!	!	!	!	!
.	.	.	.	.	.	.	16gg\L	f	.	.	.	.	.	.	.	.	.	.	.	.	.	.	.	.	.	.	.	.
.	.	.	.	.	.	.	16dd\JJ	.	.	.	.	.	.	.	.	.	.	.	.	.	.	.	.	.	.	.	.	.
8r	.	.	8r	.	8r	.	4.dd\	.	4r	.	.	.	.	.	.	.	.	.	.	.	8r	.	8r	.	8r	.	8r	.
!	!	!	!	!	!	!LO:MO:null:mod=!LO&colon;DY&colon;ed=brack	!	!	!	!	!	!	!	!	!	!	!	!	!	!	!	!	!	!LO:MO:null:mod=!LO&colon;DY&colon;ed=brack	!	!	!	!
!	!	!	!	!	!	!	!	!	!	!	!	!	!	!	!	!	!	!	!	!	!	!	!	!	!	!	!	!
!	!	!	!	!LO:DY:a:t=for&colon;:rj	!	!LO:MO:null:mod=f	!	!	!	!	!	!	!	!	!	!	!	!	!	!	!	!LO:DY:a:t=for	!	!LO:MO:null:mod=f	!	!LO:DY:a:t=for	!	!LO:DY:a:t=for
8B\L	3	.	8d\L	f	8dd'\L	.	.	.	.	.	.	.	.	.	.	.	.	.	.	.	8d/L	f	8d/L	.	8bb'\L	f	8ddd'\L	f
8A\	3	.	8d\	.	(8cc\	.	.	.	4r	.	.	.	.	.	.	.	.	.	.	.	8d/	.	8d/	.	(8aa\	.	(8ccc\	.
8F#\J	3	.	8d\J	.	8a\J)	.	8cc\	.	.	.	.	.	.	.	.	.	.	.	.	.	8d/J	.	8d/J	.	8ff#\J)	.	8aa\J)	.
!	!	!	!LO:LB:g=original	!	!	!	!	!	!	!	!	!	!	!	!	!	!	!	!	!	!	!	!LO:LB:g=original	!	!	!	!	!
=52	=52	=52	=52	=52	=52	=52	=52	=52	=52	=52	=52	=52	=52	=52	=52	=52	=52	=52	=52	=52	=52	=52	=52	=52	=52	=52	=52	=52
!	!	!	!	!	!	!	!	!	!LO:TX:a:t=3:mod=	!	!	!	!	!	!	!	!	!	!	!	!	!	!	!	!	!	!	!
!	!	!	!	!	!	!	!	!	!LO:N:vis=0	!	!	!	!	!	!	!	!	!	!	!	!	!	!	!	!	!	!	!
4G\	.	.	4d\	.	4b\	.	8b\L	.	1.r	.	.	.	.	.	.	.	.	.	.	.	4G/	.	4d/	.	4gg\	.	4bb\	.
.	.	.	.	.	.	.	16gg\L	.	.	.	.	.	.	.	.	.	.	.	.	.	.	.	.	.	.	.	.	.
.	.	.	.	.	.	.	16dd\JJ	.	.	.	.	.	.	.	.	.	.	.	.	.	.	.	.	.	.	.	.	.
8r	.	.	8r	.	8r	.	4.dd\	.	.	.	.	.	.	.	.	.	.	.	.	.	8r	.	8r	.	8r	.	8r	.
!	!	!	!	!	!	!	!	!	!	!	!	!	!	!	!	!	!	!	!	!	!	!	!	!	!LO:SIC:o=8bb\L	!	!	!
8B\L	3	.	8d\L	.	8dd'\L	.	.	.	.	.	.	.	.	.	.	.	.	.	.	.	8d/L	.	8d/L	.	8bb'\L	.	8ddd'\L	.
!	!	!	!	!	!	!	!	!	!	!	!	!	!	!	!	!	!	!	!	!	!	!	!	!	!LO:SIC:o=8aa\	!	!	!
8A\	3	.	8d\	.	(8cc\	.	.	.	.	.	.	.	.	.	.	.	.	.	.	.	8d/	.	8d/	.	(8aa\	.	(8ccc\	.
!	!	!	!	!	!	!	!	!	!	!	!	!	!	!	!	!	!	!	!	!	!	!	!	!	!LO:SIC:o=8ff#\J	!	!	!
8F#\J	3	.	8d\J	.	8a\J)	.	8cc\	.	.	.	.	.	.	.	.	.	.	.	.	.	8d/J	.	8d/J	.	8ff#\J)	.	8aa\J)	.
=53	=53	=53	=53	=53	=53	=53	=53	=53	=53	=53	=53	=53	=53	=53	=53	=53	=53	=53	=53	=53	=53	=53	=53	=53	=53	=53	=53	=53
!	!	!	!	!	!	!	!	!	!	!	!	!	!	!	!	!	!	!	!	!	!	!	!	!	!	!LO:MO:null:mod=!LO&colon;DY&colon;ed=brack	!	!
!	!	!	!	!	!	!	!	!	!	!	!	!	!	!	!	!	!	!	!	!	!	!	!	!	!	!	!	!
!	!	!	!	!	!	!	!	!	!	!	!	!LO:N:vis=0	!	!	!LO:N:vis=0	!	!	!LO:N:vis=0	!	!	!	!	!	!	!	!LO:MO:null:mod=p	!	!LO:DY:a:t=p&colon;
4G\	.	.	4d\	.	4g/	.	16b\LL	.	.	.	.	1.r	.	.	1.r	.	.	1.r	.	.	4G/	.	4d/	.	4gg\	.	4bb\	p
!	!	!	!	!	!	!	!	!LO:DY:a:t=piano	!	!	!	!	!	!	!	!	!	!	!	!	!	!	!	!	!	!	!	!
.	.	.	.	.	.	.	(16bb\	p	.	.	.	.	.	.	.	.	.	.	.	.	.	.	.	.	.	.	.	.
.	.	.	.	.	.	.	16aa\	.	.	.	.	.	.	.	.	.	.	.	.	.	.	.	.	.	.	.	.	.
.	.	.	.	.	.	.	16gg\JJ)	.	.	.	.	.	.	.	.	.	.	.	.	.	.	.	.	.	.	.	.	.
4r	.	.	4r	.	4r	.	16ff#\LL	.	.	.	.	.	.	.	.	.	.	.	.	.	4r	.	4r	.	4r	.	4r	.
.	.	.	.	.	.	.	16gg\	.	.	.	.	.	.	.	.	.	.	.	.	.	.	.	.	.	.	.	.	.
.	.	.	.	.	.	.	16aa\	.	.	.	.	.	.	.	.	.	.	.	.	.	.	.	.	.	.	.	.	.
.	.	.	.	.	.	.	16gg\JJ	.	.	.	.	.	.	.	.	.	.	.	.	.	.	.	.	.	.	.	.	.
4B\	.	.	4r	.	4g/	.	16dd\LL	.	.	.	.	.	.	.	.	.	.	.	.	.	4r	.	4r	.	4r	.	4r	.
.	.	.	.	.	.	.	16ffn\	.	.	.	.	.	.	.	.	.	.	.	.	.	.	.	.	.	.	.	.	.
.	.	.	.	.	.	.	16ee\	.	.	.	.	.	.	.	.	.	.	.	.	.	.	.	.	.	.	.	.	.
.	.	.	.	.	.	.	16dd#X\JJ	.	.	.	.	.	.	.	.	.	.	.	.	.	.	.	.	.	.	.	.	.
!	!	!	!	!	!	!	!LO:PB:g=original	!	!	!	!	!	!	!	!	!	!	!	!	!	!	!	!	!	!	!	!	!
=54	=54	=54	=54	=54	=54	=54	=54	=54	=54	=54	=54	=54	=54	=54	=54	=54	=54	=54	=54	=54	=54	=54	=54	=54	=54	=54	=54	=54
!	!	!	!	!	!	!	!	!LO:DY:a:t=forte	!	!	!	!	!	!	!	!	!	!	!	!	!	!	!	!	!	!	!	!
4c\	.	.	8e\L	.	(16g/LL	.	(16ee\LL	f	2.r	.	.	.	.	.	.	.	.	.	.	.	4r	.	4r	.	4r	.	4r	.
.	.	.	.	.	16e/	.	16cc\	.	.	.	.	.	.	.	.	.	.	.	.	.	.	.	.	.	.	.	.	.
.	.	.	8e\J	.	16d/	.	16b\	.	.	.	.	.	.	.	.	.	.	.	.	.	.	.	.	.	.	.	.	.
.	.	.	.	.	16c/JJ)	.	16a\JJ)	.	.	.	.	.	.	.	.	.	.	.	.	.	.	.	.	.	.	.	.	.
!	!	!	!	!	!	!	!	!	!	!	!	!	!	!	!	!	!	!	!	!	!	!	!	!LO:MO:null:mod=!LO&colon;DY&colon;ed=brack	!	!LO:MO:null:mod=!LO&colon;DY&colon;ed=brack	!	!
!	!	!	!	!	!	!	!	!	!	!	!	!	!	!	!	!	!	!	!	!	!	!	!	!	!	!	!	!
!	!	!	!	!	!	!	!	!	!	!	!	!	!	!	!	!	!	!	!	!	!	!LO:MO:null:mod=f	!	!LO:MO:null:mod=f	!	!LO:MO:null:mod=f	!	!LO:DY:a:t=for
4d\	.	.	4d\	.	4B/	.	4g/	.	.	.	.	.	.	.	.	.	.	.	.	.	4g\	.	4b\	.	4b\	.	4gg\	f
4D/	.	.	4d\	.	4A/	.	4f#X/	.	.	.	.	.	.	.	.	.	.	.	.	.	4d\	.	4a\	.	4a\	.	4ff#\	.
!LO:LB:g=original	!	!	!	!	!	!	!	!	!	!	!	!	!	!	!	!	!	!	!	!	!	!	!	!	!	!	!LO:LB:g=original	!
=55	=55	=55	=55	=55	=55	=55	=55	=55	=55	=55	=55	=55	=55	=55	=55	=55	=55	=55	=55	=55	=55	=55	=55	=55	=55	=55	=55	=55
*tremolo	*	*	*tremolo	*	*	*	*	*	*	*	*	*	*	*	*	*	*	*	*	*	*	*	*	*	*	*	*	*
!LO:TX:b:t=Tutti	!	!	!	!	!	!	!	!LO:DY:t=forte	!	!	!	!	!	!	!	!	!	!	!	!	!	!LO:DY:t=for	!	!	!	!	!	!LO:DY:t=for
!	!	!	!	!	!	!	!	!LO:MO:mod=.	!	!	!	!	!	!	!	!	!	!	!	!	!	!LO:MO:mod=.	!	!	!	!	!	!LO:MO:mod=.
8G\L	.	.	8d\L	.	4B/	.	4g/	f	2G\	A-	A-	2d\	A-	A-	(4b\	A-	A-	(4g\	A-	A-	2B/	f	2g\	.	2b\	.	2gg\	f
8G\	.	.	8d\	.	.	.	.	.	.	.	.	.	.	.	.	.	.	.	.	.	.	.	.	.	.	.	.	.
*	*	*	*	*	*tremolo	*	*	*	*	*	*	*	*	*	*	*	*	*	*	*	*	*	*	*	*	*	*	*
8G\	.	.	8d\	.	8b\L	.	4b\	.	.	.	.	.	.	.	4g\)	.	.	4b\)	.	.	.	.	.	.	.	.	.	.
8G\	.	.	8d\	.	8b\	.	.	.	.	.	.	.	.	.	.	.	.	.	.	.	.	.	.	.	.	.	.	.
8G\	.	.	8d\	.	8b\	.	8dd\L	.	4B\	-gnus	-gnus	4d\	-gnus	-gnus	4b\	-gnus	-gnus	8dd\L	-gnus	-gnus	4g\	.	4b\	.	4gg\	.	4bb\	.
*	*	*	*	*	*	*	*	*	*	*	*	*	*	*	*	*	*	*	*	*	*	*	*	*	*	*	*	*
!	!	!	!	!	!	!	!LO:TX:b:t=Tutti:mod=	!	!	!	!	!	!	!	!	!	!	!	!	!	!	!	!	!	!	!	!	!
8G\J	.	.	8d\J	.	8b\J	.	8ee\J	.	.	.	.	.	.	.	.	.	.	8ee\J	.	.	.	.	.	.	.	.	.	.
*Xtremolo	*	*	*	*	*Xtremolo	*	*	*	*	*	*	*	*	*	*	*	*	*	*	*	*	*	*	*	*	*	*	*
=56	=56	=56	=56	=56	=56	=56	=56	=56	=56	=56	=56	=56	=56	=56	=56	=56	=56	=56	=56	=56	=56	=56	=56	=56	=56	=56	=56	=56
8F#\L	5 3	.	8d\L	.	8a/L	.	8dd\L	.	(4F#\	De-	De-	2d\	De-	De-	2a\	De-	De-	(8dd\L	De-	De-	2d/	.	2a\	.	4ff#\	.	8ddd\L	.
8F#\	.	.	8d\	.	8f#/J	.	8a\J	.	.	.	.	.	.	.	.	.	.	8a\J	.	.	.	.	.	.	.	.	8aa\J	.
8D\	.	.	8d\	.	4a/	.	4cc\	.	4D\)	-i	.	.	.	.	.	.	.	4cc\)	.	.	.	.	.	.	4aa\	.	4ccc\	.
8D\	.	.	8d\	.	.	.	.	.	.	.	.	.	.	.	.	.	.	.	.	.	.	.	.	.	.	.	.	.
8G\	3	.	8d\	.	4g/	.	4b\	.	4G\	q[u]i	-i,	4d\	-i	-i,	4g\	-i	-i,	4b\	-i	-i,	4g\	.	4b\	.	4gg\	.	4bb\	.
*	*	*	*	*	*	*	*	*	*	*	*	*	*	*	*	*	*	*	*	*	*	*	*	*	*	*	*	*
8G\J	.	.	8d\J	.	.	.	.	.	.	.	.	.	.	.	.	.	.	.	.	.	.	.	.	.	.	.	.	.
*	*	*	*Xtremolo	*	*	*	*	*	*	*	*	*	*	*	*	*	*	*	*	*	*	*	*	*	*	*	*	*
=57	=57	=57	=57	=57	=57	=57	=57	=57	=57	=57	=57	=57	=57	=57	=57	=57	=57	=57	=57	=57	=57	=57	=57	=57	=57	=57	=57	=57
!	!	!	!	!	!	!	!	!	!LO:SIC:o=(4c\	!	!	!	!	!	!	!	!	!LO:SIC:o=(16b\LL	!	!	!	!	!	!	!	!	!	!
8C/L	.	.	8e\L	.	8c/L	.	16b/LL	.	4c\	tol-	qui	4c\	qui	qui	4e\	qvi	qui	16b\LL	qvi	qui	4r	.	4r	.	4cc\	.	8aa\L	.
.	.	.	.	.	.	.	16a/	.	.	.	.	.	.	.	.	.	.	16a\	.	.	.	.	.	.	.	.	.	.
8C/	.	.	16c\L	.	16e/L	.	16cc/	.	.	.	.	.	.	.	.	.	.	16cc\	.	.	.	.	.	.	.	.	16ccc\L	.
!	!	!	!	!	!	!	!	!	!	!	!	!	!	!	!	!	!	!LO:SIC:o=16a\JJ)	!	!	!	!	!	!	!	!	!	!
.	.	.	16e\JJ	.	16c/JJ	.	16a/JJ	.	.	.	.	.	.	.	.	.	.	16a\JJ	.	.	.	.	.	.	.	.	16aa\JJ	.
!	!	!	!	!	!	!	!	!	!LO:SIC:o=4d\)	!	!	!	!	!	!	!	!	!LO:SIC:o=4g/	!	!	!	!	!	!	!	!	!	!
8D/	4	.	4d\	.	4B/	.	4g/	.	(4d\	.	tol-	(4B\	tol-	tol-	2d\	tol-	tol-	(4g/	tol-	tol-	4g\	.	4b\	.	4b\	.	4gg\	.
8D/	.	.	.	.	.	.	.	.	.	.	.	.	.	.	.	.	.	.	.	.	.	.	.	.	.	.	.	.
!	!	!	!	!	!	!	!	!	!LO:SIC:o=4D\	!	!	!	!	!	!	!	!	!LO:SIC:o=4f#/	!	!	!	!	!	!	!	!	!	!
8DD/	.	.	4d\	.	4A/	.	4f#/	.	4D\)	.	.	4A\)	.	.	.	.	.	4f#/)	.	.	4d\	.	4a\	.	4a\	.	4ff#\	.
8DD/J	.	.	.	.	.	.	.	.	.	.	.	.	.	.	.	.	.	.	.	.	.	.	.	.	.	.	.	.
!	!	!	!	!	!	!	!	!	!	!	!	!	!	!	!	!	!	!	!	!	!	!	!	!	!LO:LB:g=original	!	!	!
=58	=58	=58	=58	=58	=58	=58	=58	=58	=58	=58	=58	=58	=58	=58	=58	=58	=58	=58	=58	=58	=58	=58	=58	=58	=58	=58	=58	=58
!	!	!LO:DY:a:t=p&colon;	!	!	!	!	!	!	!	!	!	!	!	!	!	!	!	!LO:TX:a:t=g:mod=	!	!	!	!	!	!	!	!	!	!
4G\	.	p	4d\	.	4B/	.	8g/L	.	4G\	-lis	-lis	4B\	-lis	-lis	4d\	-lis	-lis	4g\	-lis	-lis	4G/	.	4g\	.	4b\	.	4gg\	.
.	.	.	.	.	.	.	8d/	.	.	.	.	.	.	.	.	.	.	.	.	.	.	.	.	.	.	.	.	.
4r	.	.	4r	.	4r	.	8b/	.	4r	.	.	4r	.	.	4r	.	.	4r	.	.	4r	.	4r	.	4r	.	4r	.
.	.	.	.	.	.	.	8g/	.	.	.	.	.	.	.	.	.	.	.	.	.	.	.	.	.	.	.	.	.
4G\	.	.	4d\	.	8B/L	.	8d/	.	4r	.	.	4r	.	.	4r	.	.	4r	.	.	4r	.	4r	.	4r	.	4r	.
.	.	.	.	.	8G/J	.	8B/J	.	.	.	.	.	.	.	.	.	.	.	.	.	.	.	.	.	.	.	.	.
=59	=59	=59	=59	=59	=59	=59	=59	=59	=59	=59	=59	=59	=59	=59	=59	=59	=59	=59	=59	=59	=59	=59	=59	=59	=59	=59	=59	=59
!	!	!	!	!	!	!	!	!	!LO:TX:a:t=1:mod=	!	!	!LO:TX:a:t=1:mod=	!	!	!LO:TX:a:t=1:mod=	!	!	!LO:TX:a:t=1:mod=	!	!	!	!	!	!	!LO:TX:a:t=1:mod=	!	!LO:TX:a:t=1:mod=	!
4D\	7 5	.	4d\	.	8.A/L	.	8.c/L	.	2.r	.	.	2.r	.	.	2.r	.	.	2.r	.	.	4d/	.	4d/	.	2.r	.	2.r	.
.	.	.	.	.	32G/LL	.	32B/LL	.	.	.	.	.	.	.	.	.	.	.	.	.	.	.	.	.	.	.	.	.
.	.	.	.	.	32A/JJJ	.	32c/JJJ	.	.	.	.	.	.	.	.	.	.	.	.	.	.	.	.	.	.	.	.	.
4GG/	3	.	4d\	.	4G/	.	4B/	.	.	.	.	.	.	.	.	.	.	.	.	.	4G/	.	4d/	.	.	.	.	.
4r	.	.	4r	.	4r	.	4r	.	.	.	.	.	.	.	.	.	.	.	.	.	4r	.	4r	.	.	.	.	.
!LO:TX:a:rj:t=+:mod=	!	!	!	!	!LO:LB:g=original	!	!	!	!LO:LB:g=original	!	!	!LO:LB:g=original	!	!	!	!	!	!	!	!	!	!	!	!	!	!	!	!
=60	=60	=60	=60	=60	=60	=60	=60	=60	=60	=60	=60	=60	=60	=60	=60	=60	=60	=60	=60	=60	=60	=60	=60	=60	=60	=60	=60	=60
*tremolo	*	*	*tremolo	*	*tremolo	*	*	*	*	*	*	*	*	*	*	*	*	*	*	*	*	*	*	*	*	*	*	*
!	!	!LO:DY:a:t=for	!	!	!	!	!	!	!	!	!	!	!	!	!	!	!	!	!	!	!	!	!LO:TX:a:t=2:mod=	!	!	!	!	!
!	!	!	!	!	!	!	!	!	!	!	!	!	!	!	!	!	!	!	!	!	!LO:N:vis=0	!	!LO:N:vis=0	!	!	!	!	!
8C/L	3	f	8c\L	.	8g/L	.	4ee\	.	2.C/	pec-	pec-	2.c\	pec-	pec-	2.g\	pec-	pec-	2.ee\	pec-	pec-	1.r	.	1.r	.	2.cc\	.	2.ee\	.
8C/	.	.	8c\	.	8g/	.	.	.	.	.	.	.	.	.	.	.	.	.	.	.	.	.	.	.	.	.	.	.
8C/	.	.	8c\	.	8g/	.	(16ee\LL	.	.	.	.	.	.	.	.	.	.	.	.	.	.	.	.	.	.	.	.	.
.	.	.	.	.	.	.	16gg\	.	.	.	.	.	.	.	.	.	.	.	.	.	.	.	.	.	.	.	.	.
8C/	.	.	8c\	.	8g/	.	16ff#\	.	.	.	.	.	.	.	.	.	.	.	.	.	.	.	.	.	.	.	.	.
.	.	.	.	.	.	.	16gg\JJ)	.	.	.	.	.	.	.	.	.	.	.	.	.	.	.	.	.	.	.	.	.
8C/	.	.	8c\	.	8g/	.	(16aa\LL	.	.	.	.	.	.	.	.	.	.	.	.	.	.	.	.	.	.	.	.	.
.	.	.	.	.	.	.	16gg\	.	.	.	.	.	.	.	.	.	.	.	.	.	.	.	.	.	.	.	.	.
!	!	!	!	!	!	!	!LO:SIC:o=16ff#\)	!	!	!	!	!	!	!	!	!	!	!	!	!	!	!	!	!	!	!	!	!
8C/J	.	.	8c\J	.	8g/J	.	16ff#\	.	.	.	.	.	.	.	.	.	.	.	.	.	.	.	.	.	.	.	.	.
!	!	!	!	!	!	!	!LO:SIC:o=16gg\JJ	!	!	!	!	!	!	!	!	!	!	!	!	!	!	!	!	!	!	!	!	!
.	.	.	.	.	.	.	16gg\JJ)	.	.	.	.	.	.	.	.	.	.	.	.	.	.	.	.	.	.	.	.	.
!	!	!	!	!	!	!	!	!	!	!	!	!	!	!	!	!	!	!LO:LB:g=original	!	!	!	!	!	!	!	!	!	!
=61	=61	=61	=61	=61	=61	=61	=61	=61	=61	=61	=61	=61	=61	=61	=61	=61	=61	=61	=61	=61	=61	=61	=61	=61	=61	=61	=61	=61
!	!	!	!	!	!LO:TX:t=P:problem:takt zapisany repetycją	!	!	!	!	!	!	!	!	!	!	!	!	!	!	!	!	!	!	!	!	!	!	!
!	!	!	!	!	!LO:SIC:o=8g/Lyy	!	!	!	!	!	!	!LO:MO:mod=2B\	!	!	!	!	!	!	!	!	!	!	!	!	!	!	!	!
8BB/L	3	.	8B\L	.	8g/L	.	4dd\	.	2G\	-ca-	-ca-	2.B\	-ca	-ca-	2g\	-ca-	-ca-	2dd\	-ca-	-ca-	.	.	.	.	2.b\	.	2.dd\	.
!	!	!	!	!	!LO:SIC:o=8g/yy	!	!	!	!	!	!	!	!	!	!	!	!	!	!	!	!	!	!	!	!	!	!	!
8BB/	.	.	8B\	.	8g/	.	.	.	.	.	.	.	.	.	.	.	.	.	.	.	.	.	.	.	.	.	.	.
!	!	!	!	!	!LO:SIC:o=8g/yy	!	!	!	!	!	!	!	!	!	!	!	!	!	!	!	!	!	!	!	!	!	!	!
8BB/	.	.	8B\	.	8g/	.	(16dd\LL	.	.	.	.	.	.	.	.	.	.	.	.	.	.	.	.	.	.	.	.	.
.	.	.	.	.	.	.	16gg\	.	.	.	.	.	.	.	.	.	.	.	.	.	.	.	.	.	.	.	.	.
!	!	!	!	!	!LO:SIC:o=8g/yy	!	!	!	!	!	!	!	!	!	!	!	!	!	!	!	!	!	!	!	!	!	!	!
8BB/	.	.	8B\	.	8g/	.	16ff#\	.	.	.	.	.	.	.	.	.	.	.	.	.	.	.	.	.	.	.	.	.
.	.	.	.	.	.	.	16gg\JJ)	.	.	.	.	.	.	.	.	.	.	.	.	.	.	.	.	.	.	.	.	.
!	!	!	!	!	!LO:SIC:o=8g/yy	!	!LO:SIC:o=16aa\LL	!	!	!	!	!LO:MO:null:mod=4B\	!	!	!	!	!	!	!	!	!	!	!	!	!	!	!	!
8BB/	.	.	8B\	.	8g/	.	(16aa\LL	.	4G\	-ta	-ta	.	.	-[ta]	4g\	-ta	-ta	4dd\	-ta	-ta	.	.	.	.	.	.	.	.
.	.	.	.	.	.	.	16gg\	.	.	.	.	.	.	.	.	.	.	.	.	.	.	.	.	.	.	.	.	.
*	*	*	*	*	*	*	*	*	*	*ij	*ij	*	*	*	*	*	*	*	*	*	*	*	*	*	*	*	*	*
!	!	!	!	!	!LO:SIC:o=8g/Jyy	!	!	!	!	!	!	!	!	!	!	!	!	!	!	!	!	!	!	!	!	!	!	!
8BB/J	.	.	8B\J	.	8g/J	.	16ff#\	.	.	.	.	.	.	.	.	.	.	.	.	.	.	.	.	.	.	.	.	.
!	!	!	!	!	!	!	!LO:SIC:o=16gg\JJ	!	!	!	!	!	!	!	!	!	!	!	!	!	!	!	!	!	!	!	!	!
.	.	.	.	.	.	.	16gg\JJ)	.	.	.	.	.	.	.	.	.	.	.	.	.	.	.	.	.	.	.	.	.
*Xtremolo	*	*	*Xtremolo	*	*Xtremolo	*	*	*	*	*	*	*	*	*	*	*	*	*	*	*	*	*	*	*	*	*	*	*
!	!	!	!	!	!	!	!LO:LB:g=original	!	!	!	!	!	!	!	!LO:LB:g=original	!	!	!	!	!	!	!	!	!	!	!	!	!
=62	=62	=62	=62	=62	=62	=62	=62	=62	=62	=62	=62	=62	=62	=62	=62	=62	=62	=62	=62	=62	=62	=62	=62	=62	=62	=62	=62	=62
8D\L	.	.	4d\	.	8f#/L	.	8dd\L	.	4A\	pec-	pec-	4d\	pec-	pec-	4f#\	pe(c)-	pe(c)-	8dd\L	pec-	pec-	4d\	.	4d\	.	4a/	.	4dd\	.
8D\	.	.	.	.	8f#/J	.	8cc\J	.	.	.	.	.	.	.	.	.	.	8cc\J	.	.	.	.	.	.	.	.	.	.
8F#\	.	.	4d\	.	4a/	.	4cc\	.	4F#\	-ca-	-ca-	4d\	-ca-	-ca-	4a\	-cat-	-cat-	4cc\	-ca-	-ca-	4d\	.	4a\	.	4aa\	.	4ccc\	.
8F#\	.	.	.	.	.	.	.	.	.	.	.	.	.	.	.	.	.	.	.	.	.	.	.	.	.	.	.	.
8G\	.	.	4d\	.	4g/	.	4b\	.	4G\	-ta	-ta	4d\	-ta	-ta	4g\	-ta	-ta	4b\	-ta	-ta	4g\	.	4b\	.	4gg\	.	4bb\	.
8G\J	.	.	.	.	.	.	.	.	.	.	.	.	.	.	.	.	.	.	.	.	.	.	.	.	.	.	.	.
*	*	*	*	*	*	*	*	*	*	*Xij	*Xij	*	*	*	*	*	*	*	*	*	*	*	*	*	*	*	*	*
!	!	!	!LO:LB:g=original	!	!	!	!	!	!	!	!	!	!	!	!	!	!	!	!	!	!	!	!	!	!	!	!	!
!!LO:MO:ori
=63	=63	=63	=63	=63	=63	=63	=63	=63	=63	=63	=63	=63	=63	=63	=63	=63	=63	=63	=63	=63	=63	=63	=63	=63	=63	=63	=63	=63
!!LO:TX:t=P:problem:zbędne powtórzenie taktu a-vla
2.ryy	.	.	4d\	.	2.ryy	.	2.ryy	.	2.ryy	.	.	2.ryy	.	.	2.ryy	.	.	2.ryy	.	.	2.ryy	.	2.ryy	.	2.ryy	.	2.ryy	.
.	.	.	4d\	.	.	.	.	.	.	.	.	.	.	.	.	.	.	.	.	.	.	.	.	.	.	.	.	.
.	.	.	4d\	.	.	.	.	.	.	.	.	.	.	.	.	.	.	.	.	.	.	.	.	.	.	.	.	.
!!LO:MO:end
=64	=64	=64	=64	=64	=64	=64	=64	=64	=64	=64	=64	=64	=64	=64	=64	=64	=64	=64	=64	=64	=64	=64	=64	=64	=64	=64	=64	=64
4D\	.	.	4d\	.	4g/	.	8.bt\L	.	4D\	mun-	mun-	4d\	mun-	mun-	4g\	mun-	mun-	4b\	mun-	mun-	4g\	.	4b\	.	4gg\	.	4bbt\	.
.	.	.	.	.	.	.	32a\LL	.	.	.	.	.	.	.	.	.	.	.	.	.	.	.	.	.	.	.	.	.
.	.	.	.	.	.	.	32b\JJJ	.	.	.	.	.	.	.	.	.	.	.	.	.	.	.	.	.	.	.	.	.
.	.	.	.	.	.	.	.	.	.	.	.	.	.	.	.	.	.	16qqa/LL	.	.	.	.	.	.	.	.	.	.
.	.	.	.	.	.	.	.	.	.	.	.	.	.	.	.	.	.	16qqb/JJ	.	.	.	.	.	.	.	.	.	.
4DD/	.	.	4d\	.	4f#/	.	4a/	.	4D\	-di	-di:	4d\	-di	-di:	4f#\	-di	-di:	4a\	-di	-di:	4d\	.	4a\	.	4ff#\	.	4aa\	.
!	!	!	!	!	!LO:TX:t=x:mod=	!	!	!	!	!	!	!	!	!	!	!	!	!	!	!	!	!	!	!	!	!	!	!
4r	.	.	4r	.	4r	.	4r	.	4r	.	.	4r	.	.	4r	.	.	4r	.	.	4r	.	4r	.	4r	.	4r	.
!	!	!	!	!	!	!	!	!	!	!	!	!	!	!	!	!	!	!	!	!	!LO:LB:g=original	!	!	!	!	!	!	!
=65	=65	=65	=65	=65	=65	=65	=65	=65	=65	=65	=65	=65	=65	=65	=65	=65	=65	=65	=65	=65	=65	=65	=65	=65	=65	=65	=65	=65
!	!	!	!LO:SIC:o=8d\L	!	!	!	!	!	!	!	!	!	!	!	!	!	!	!	!	!	!	!	!	!	!	!	!	!
4D\	.	.	8d'\L	.	8dd'\L	.	8dd'\L	.	2.D\	mi-	mi-	2.d\	mi-	mi-	2.cc\	Mi-	mi-	2.ff#\	Mi-	mi-	2.d/	.	2.a\	.	2.ff#\	.	2.ccc\	.
!	!	!	!LO:SIC:o=8f#\	!	!	!	!	!	!	!	!	!	!	!	!	!	!	!	!	!	!	!	!	!	!	!	!	!
.	.	.	8f#'\	.	8aa'\	.	8ccc'\	.	.	.	.	.	.	.	.	.	.	.	.	.	.	.	.	.	.	.	.	.
!	!	!	!LO:SIC:o=8a\	!	!	!	!	!	!	!	!	!	!	!	!	!	!	!	!	!	!	!	!	!	!	!	!	!
4r	.	.	8a'\	.	8ff#'\	.	8aa'\	.	.	.	.	.	.	.	.	.	.	.	.	.	.	.	.	.	.	.	.	.
!	!	!	!LO:SIC:o=8cc\	!	!	!	!	!	!	!	!	!	!	!	!	!	!	!	!	!	!	!	!	!	!	!	!	!
.	.	.	8cc'\	.	8dd'\	.	8ff#'\	.	.	.	.	.	.	.	.	.	.	.	.	.	.	.	.	.	.	.	.	.
!	!	!	!LO:SIC:o=8a\	!	!	!	!	!	!	!	!	!	!	!	!	!	!	!	!	!	!	!	!	!	!	!	!	!
4D\	.	.	8a'\	.	8a'\	.	8cc'\	.	.	.	.	.	.	.	.	.	.	.	.	.	.	.	.	.	.	.	.	.
!	!	!	!LO:SIC:o=8f#\J	!	!	!	!	!	!	!	!	!	!	!	!	!	!	!	!	!	!	!	!	!	!	!	!	!
.	.	.	8f#'\J	.	8f#'\J	.	8a'\J	.	.	.	.	.	.	.	.	.	.	.	.	.	.	.	.	.	.	.	.	.
=66	=66	=66	=66	=66	=66	=66	=66	=66	=66	=66	=66	=66	=66	=66	=66	=66	=66	=66	=66	=66	=66	=66	=66	=66	=66	=66	=66	=66
!	!	!	!LO:SIC:o=8d\L	!	!	!	!	!	!	!	!	!	!	!	!	!	!	!	!	!	!	!	!	!	!	!	!	!
4G\	.	.	8d'\L	.	8g'\L	.	8b'\L	.	2.G\	-se-	-se-	2.d\	-se-	-se-	2.b\	-se-	-se-	2.gg\	-se-	-se-	2.g\	.	2.b\	.	2.gg\	.	2.bb\	.
!	!	!	!LO:SIC:o=8g\	!	!	!	!	!	!	!	!	!	!	!	!	!	!	!	!	!	!	!	!	!	!	!	!	!
.	.	.	8g'\	.	8bb'\	.	8ddd'\	.	.	.	.	.	.	.	.	.	.	.	.	.	.	.	.	.	.	.	.	.
!	!	!	!LO:SIC:o=8b\	!	!	!	!	!	!	!	!	!	!	!	!	!	!	!	!	!	!	!	!	!	!	!	!	!
4r	.	.	8b'\	.	8gg'\	.	8bb'\	.	.	.	.	.	.	.	.	.	.	.	.	.	.	.	.	.	.	.	.	.
!	!	!	!LO:SIC:o=8dd\	!	!	!	!	!	!	!	!	!	!	!	!	!	!	!	!	!	!	!	!	!	!	!	!	!
.	.	.	8dd'\	.	8dd'\	.	8gg'\	.	.	.	.	.	.	.	.	.	.	.	.	.	.	.	.	.	.	.	.	.
!	!	!	!LO:SIC:o=8b\	!	!	!	!	!	!	!	!	!	!	!	!	!	!	!	!	!	!	!	!	!	!	!	!	!
4G\	.	.	8b'\	.	8b'\	.	8dd'\	.	.	.	.	.	.	.	.	.	.	.	.	.	.	.	.	.	.	.	.	.
!	!	!	!LO:SIC:o=8g\J	!	!	!	!	!	!	!	!	!	!	!	!	!	!	!	!	!	!	!	!	!	!	!	!	!
.	.	.	8g'\J	.	8g'\J	.	8b'\J	.	.	.	.	.	.	.	.	.	.	.	.	.	.	.	.	.	.	.	.	.
!	!	!	!	!	!	!	!	!	!	!	!	!	!	!	!	!	!	!	!	!	!	!	!LO:LB:g=original	!	!	!	!	!
=67	=67	=67	=67	=67	=67	=67	=67	=67	=67	=67	=67	=67	=67	=67	=67	=67	=67	=67	=67	=67	=67	=67	=67	=67	=67	=67	=67	=67
!	!	!	!LO:SIC:o=8d\L	!	!	!	!LO:SIC:o=8a\L	!	!	!	!	!	!	!	!	!	!	!	!	!	!	!	!	!	!	!	!	!
4D\	.	.	8d'\L	.	8f#'\L	.	8a'\L	.	2.D\	-re-	-re-	2.d\	-re-	-re-	2.a\	-re-	-re-	2.ff#\	-re-	-re-	2.d/	.	2.a\	.	2.ff#\	.	2.ccc\	.
!	!	!	!LO:SIC:o=8f#\	!	!	!	!LO:SIC:o=8ccc\	!	!	!	!	!	!	!	!	!	!	!	!	!	!	!	!	!	!	!	!	!
.	.	.	8f#'\	.	8aa'\	.	8ccc'\	.	.	.	.	.	.	.	.	.	.	.	.	.	.	.	.	.	.	.	.	.
!	!	!	!LO:SIC:o=8a\	!	!	!	!LO:SIC:o=8aa\	!	!	!	!	!	!	!	!	!	!	!	!	!	!	!	!	!	!	!	!	!
4r	.	.	8a'\	.	8ff#'\	.	8aa'\	.	.	.	.	.	.	.	.	.	.	.	.	.	.	.	.	.	.	.	.	.
!	!	!	!LO:SIC:v:o=8cc\	!	!	!	!LO:SIC:o=8ff#\	!	!	!	!	!	!	!	!	!	!	!	!	!	!	!	!	!	!	!	!	!
.	.	.	8dd'\	.	8dd'\	.	8ff#'\	.	.	.	.	.	.	.	.	.	.	.	.	.	.	.	.	.	.	.	.	.
!	!	!	!LO:SIC:o=8a\	!	!	!	!LO:SIC:o=8cc\	!	!	!	!	!	!	!	!	!	!	!	!	!	!	!	!	!	!	!	!	!
4D\	.	.	8a'\	.	8a'\	.	8cc'\	.	.	.	.	.	.	.	.	.	.	.	.	.	.	.	.	.	.	.	.	.
!	!	!	!LO:SIC:o=8f#\J	!	!	!	!LO:SIC:o=8a\J	!	!	!	!	!	!	!	!	!	!	!	!	!	!	!	!	!	!	!	!	!
.	.	.	8f#'\J	.	8f#'\J	.	8a'\J	.	.	.	.	.	.	.	.	.	.	.	.	.	.	.	.	.	.	.	.	.
=68	=68	=68	=68	=68	=68	=68	=68	=68	=68	=68	=68	=68	=68	=68	=68	=68	=68	=68	=68	=68	=68	=68	=68	=68	=68	=68	=68	=68
!	!	!	!	!	!	!	!	!	!	!	!	!	!	!	!	!	!	!LO:N:vis=2.	!	!	!	!	!	!	!	!	!	!
4G\	.	.	8d\L	.	8g\L	.	8b\L	.	2G\	-re	-re	2d\	-re	-re	2b\	-re	-re	2gg\	-re	-re	2G/	.	2d/	.	2gg\	.	2bb\	.
.	.	.	8g\	.	8bb\	.	8ddd\	.	.	.	.	.	.	.	.	.	.	.	.	.	.	.	.	.	.	.	.	.
!	!	!	!LO:SIC:v:o=8cc\	!	!	!	!	!	!	!	!	!	!	!	!	!	!	!	!	!	!	!	!	!	!	!	!	!
4r	.	.	8b\	.	8gg\	.	8bb\	.	.	.	.	.	.	.	.	.	.	.	.	.	.	.	.	.	.	.	.	.
.	.	.	8dd\	.	8dd\	.	8gg\	.	.	.	.	.	.	.	.	.	.	.	.	.	.	.	.	.	.	.	.	.
4G\	.	.	8b\	.	8b\	.	8dd\	.	4r	.	.	4r	.	.	4r	.	.	4r	.	.	4r	.	4r	.	4r	.	4r	.
.	.	.	8g\J	.	8dd\J	.	8gg\J	.	.	.	.	.	.	.	.	.	.	.	.	.	.	.	.	.	.	.	.	.
!	!	!	!	!	!	!	!	!	!	!	!	!LO:LB:g=original	!	!	!	!	!	!	!	!	!	!	!	!	!	!	!	!
=69	=69	=69	=69	=69	=69	=69	=69	=69	=69	=69	=69	=69	=69	=69	=69	=69	=69	=69	=69	=69	=69	=69	=69	=69	=69	=69	=69	=69
4C/	.	.	8e\L	.	16cc\LL	.	16ee\LL	.	8r	.	.	8r	.	.	8r	.	.	8r	.	.	4r	.	4r	.	8r	.	8r	.
.	.	.	.	.	16ee\	.	16ccc\	.	.	.	.	.	.	.	.	.	.	.	.	.	.	.	.	.	.	.	.	.
!	!	!	!	!	!	!	!	!	!LO:SIC:o=8C/	!	!	!	!	!	!LO:SIC:o=8cc\	!	!	!	!	!	!	!	!	!	!	!	!	!
.	.	.	8e\J	.	16dd\	.	16bb\	.	(8C/	no-	no-	(8e\	no-	no-	(8cc\	no-	no-	(8aa\	no-	no-	.	.	.	.	8cc\	.	8aa\	.
.	.	.	.	.	16cc\JJ	.	16aa\JJ	.	.	.	.	.	.	.	.	.	.	.	.	.	.	.	.	.	.	.	.	.
!	!	!	!	!	!	!	!	!	!LO:SIC:o=4D\	!	!	!	!	!	!LO:SIC:o=4b\	!	!	!	!	!	!	!	!	!	!	!	!	!
4D/	.	.	4d\	.	4b\	.	4gg\	.	4D\)	.	.	4d\)	.	.	4b\)	.	.	4gg\)	.	.	4g\	.	4b\	.	4b\	.	4gg\	.
4DD/	.	.	4d\	.	4a\	.	4ff#\	.	4D\	-bis.	-bis.	4d\	-bis	-bis.	4a\	-bis	-bis.	4ff#\	-bis.	-bis.	4d\	.	4a\	.	4a\	.	4ff#\	.
!	!	!	!	!	!	!	!	!	!LO:LB:g=original	!	!	!	!	!	!	!	!	!	!	!	!	!	!	!	!	!	!LO:LB:g=original	!
=70	=70	=70	=70	=70	=70	=70	=70	=70	=70	=70	=70	=70	=70	=70	=70	=70	=70	=70	=70	=70	=70	=70	=70	=70	=70	=70	=70	=70
!	!	!	!	!	!	!	!	!	!LO:TX:a:t=1:mod=	!	!	!	!	!	!LO:TX:a:t=1:mod=	!	!	!LO:TX:a:t=1:mod=	!	!	!	!	!	!	!	!	!	!
2.r	.	.	4e\	.	16b\LL	.	16gg\LL	.	2.r	.	.	2.r	.	.	2.r	.	.	2.r	.	.	4G/	.	4g\	.	4b\	.	4gg\	.
.	.	.	.	.	16cc\	.	16ee\	.	.	.	.	.	.	.	.	.	.	.	.	.	.	.	.	.	.	.	.	.
.	.	.	.	.	16b\	.	16dd\	.	.	.	.	.	.	.	.	.	.	.	.	.	.	.	.	.	.	.	.	.
.	.	.	.	.	16a\JJ	.	16cc\JJ	.	.	.	.	.	.	.	.	.	.	.	.	.	.	.	.	.	.	.	.	.
.	.	.	4d\	.	4g/	.	4b\	.	.	.	.	.	.	.	.	.	.	.	.	.	4r	.	4r	.	4r	.	4r	.
.	.	.	4d\	.	4f#/	.	4a\	.	.	.	.	.	.	.	.	.	.	.	.	.	4r	.	4r	.	4r	.	4r	.
!	!	!	!	!	!LO:TX:b:rj:t=Verte Cito\nAllo:mod=	!	!	!	!	!	!	!	!	!	!	!	!	!	!	!	!	!	!	!	!	!	!	!
!LO:LB:g=original	!	!	!LO:LB:g=original	!	!LO:PB:g=original	!	!LO:LB:g=original	!	!LO:LB:g=original	!	!	!LO:LB:g=original	!	!	!LO:LB:g=original	!	!	!LO:LB:g=original	!	!	!	!	!	!	!	!	!	!
=71||	=71||	=71||	=71||	=71||	=71||	=71||	=71||	=71||	=71||	=71||	=71||	=71||	=71||	=71||	=71||	=71||	=71||	=71||	=71||	=71||	=71||	=71||	=71||	=71||	=71||	=71||	=71||	=71||
!!!OMD:
!!!OMD-mod: Allegro
*M2/4	*	*	*M2/4	*	*M2/4	*	*M2/4	*	*M2/4	*	*	*M2/4	*	*	*M2/4	*	*	*M2/4	*	*	*M2/4	*	*M2/4	*	*M2/4	*	*M2/4	*
!LO:TX:a:t=allo:mod=	!	!LO:DY:a:t=piano	!LO:TX:a:t=Allo:mod=	!	!	!	!LO:TX:a:t=Allo:mod=	!	!LO:TX:a:t=allo:mod=	!	!	!LO:TX:a:t=allo:mod=	!	!	!LO:TX:a:t=allo:mod=	!	!	!LO:TX:a:t=Allo:mod=	!	!	!LO:TX:a:t=allo:mod=	!LO:DY:a:t=piano	!LO:TX:a:t=allegro:mod=	!LO:DY:a:t=piano	!LO:TX:a:t=allo:mod=	!LO:DY:a:t=piano	!LO:TX:a:t=Allo:mod=	!LO:DY:a:t=piano
!	!	!	!	!	!	!	!	!	!	!	!	!	!	!	!	!	!	!	!	!	!	!	!	!	!LO:SIC:o=8b\	!	!	!
4G\	.	p	8r	.	8r	.	8r	.	8G\	Mi-	Mi-	8d\	Mi-	Mi-	8b\	Mi-	Mi-	8dd\	Mi-	Mi-	8G/	p	8g\	p	8b'\	p	8dd'\	p
!	!	!	!	!LO:DY:a:t=piano	!	!LO:DY:a:t=piano	!	!LO:DY:a:t=piano	!	!	!	!	!	!	!	!	!	!	!	!	!	!	!	!	!	!	!	!
.	.	.	8d'\L	p	8b'\L	p	8dd'\L	p	8r	.	.	8r	.	.	8r	.	.	8r	.	.	8r	.	8r	.	8r	.	8r	.
4r	.	.	8d'\	.	8b'\	.	8dd'\	.	4r	.	.	4r	.	.	4r	.	.	4r	.	.	4r	.	4r	.	4r	.	4r	.
.	.	.	8d'\J	.	8b'\J	.	8dd'\J	.	.	.	.	.	.	.	.	.	.	.	.	.	.	.	.	.	.	.	.	.
!	!	!	!	!	!	!	!	!	!	!	!	!	!	!	!	!	!	!	!	!	!	!	!	!	!LO:LB:g=original	!	!	!
=72	=72	=72	=72	=72	=72	=72	=72	=72	=72	=72	=72	=72	=72	=72	=72	=72	=72	=72	=72	=72	=72	=72	=72	=72	=72	=72	=72	=72
!	!	!	!	!	!	!	!	!	!	!	!	!	!	!	!	!	!	!	!	!	!	!	!	!	!LO:SIC:o=8b\	!	!LO:SIC:o=8gg\	!
4G\	.	.	8r	.	8r	.	8r	.	8G\	-se-	-se-	8d\	-se-	-se-	8b\	-se-	-se-	8dd\	-se-	-se-	8G/	.	8g\	.	8b'\	.	8gg'\	.
.	.	.	8d'\L	.	8b'\L	.	8gg'\L	.	8r	.	.	8r	.	.	8r	.	.	8r	.	.	8r	.	8r	.	8r	.	8r	.
4r	.	.	8d'\	.	8b'\	.	8gg'\	.	4r	.	.	4r	.	.	4r	.	.	4r	.	.	4r	.	4r	.	4r	.	4r	.
.	.	.	8d'\J	.	8b'\J	.	8gg'\J	.	.	.	.	.	.	.	.	.	.	.	.	.	.	.	.	.	.	.	.	.
=73	=73	=73	=73	=73	=73	=73	=73	=73	=73	=73	=73	=73	=73	=73	=73	=73	=73	=73	=73	=73	=73	=73	=73	=73	=73	=73	=73	=73
!	!	!	!	!	!	!	!	!	!	!	!	!	!	!	!	!	!	!	!	!	!LO:TX:a:t=1:mod=	!	!LO:TX:a:t=1:mod=	!	!LO:SIC:o=8cc\	!	!LO:SIC:o=8ee\	!
4C/	.	.	8r	.	8r	.	8r	.	8C/	-re-	-re-	8G/	-re-	-re-	8cc\	-re-	-re-	8ee\	-re-	-re-	2r	.	2r	.	8cc'\	.	8ee'\	.
!	!	!	!LO:SIC:o=8g\L	!	!	!	!	!	!	!	!	!	!	!	!	!	!	!	!	!	!	!	!	!	!	!	!	!
.	.	.	8g'\L	.	8cc'\L	.	8ee'\L	.	8r	.	.	8r	.	.	8r	.	.	8r	.	.	.	.	.	.	8r	.	8r	.
!	!	!	!LO:SIC:o=8g\	!	!	!	!	!	!	!	!	!	!	!	!	!	!	!	!	!	!	!	!	!	!	!	!	!
4r	.	.	8g'\	.	8cc'\	.	8ee'\	.	4r	.	.	4r	.	.	4r	.	.	4r	.	.	.	.	.	.	4r	.	4r	.
!	!	!	!LO:SIC:o=8g\J	!	!	!	!	!	!	!	!	!	!	!	!	!	!	!	!	!	!	!	!	!	!	!	!	!
.	.	.	8g'\J	.	8cc'\J	.	8ee'\J	.	.	.	.	.	.	.	.	.	.	.	.	.	.	.	.	.	.	.	.	.
=74	=74	=74	=74	=74	=74	=74	=74	=74	=74	=74	=74	=74	=74	=74	=74	=74	=74	=74	=74	=74	=74	=74	=74	=74	=74	=74	=74	=74
4AA/	.	.	8r	.	8r	.	8r	.	8A\	-re	-re	8d\	-re	-re	8cc\	-re	-re	8ff#\	-re	-re	8d/	.	8d/	.	8ff#'\	.	8ccc'\	.
!	!	!	!LO:SIC:o=8d\L	!	!	!	!	!	!	!	!	!	!	!	!	!	!	!	!	!	!	!	!	!	!	!	!	!
.	.	.	8d'\L	.	8ff#'\L	.	8ccc'\L	.	8r	.	.	8r	.	.	8r	.	.	8r	.	.	8r	.	8r	.	8r	.	8r	.
!	!	!	!LO:SIC:o=8d\	!	!	!	!	!	!	!	!	!	!	!	!	!	!	!	!	!	!	!	!	!	!	!	!	!
4r	.	.	8d'\	.	8ff#'\	.	8ccc'\	.	4r	.	.	4r	.	.	4r	.	.	4r	.	.	4r	.	4r	.	4r	.	4r	.
!	!	!	!LO:SIC:o=8d\J	!	!	!	!	!	!	!	!	!	!	!	!	!	!	!	!	!	!	!	!	!	!	!	!	!
.	.	.	8d'\J	.	8ff#'\J	.	8ccc'\J	.	.	.	.	.	.	.	.	.	.	.	.	.	.	.	.	.	.	.	.	.
=75	=75	=75	=75	=75	=75	=75	=75	=75	=75	=75	=75	=75	=75	=75	=75	=75	=75	=75	=75	=75	=75	=75	=75	=75	=75	=75	=75	=75
8GG/	.	.	8r	.	8r	.	8r	.	8G\	no-	no-	8d\	no-	no-	8b\	no-	no-	8gg\	no-	no-	8G/	.	8g\	.	8gg'\	.	8bb'\	.
!	!	!	!LO:SIC:o=8d\	!	!	!	!	!	!	!	!	!	!	!	!	!	!	!	!	!	!	!	!	!	!	!	!	!
8r	.	.	8d'\	.	8gg'\	.	8bb'\	.	8r	.	.	8r	.	.	8r	.	.	8r	.	.	8r	.	8r	.	8r	.	8r	.
!	!	!	!	!	!	!	!	!	!	!	!	!	!	!	!	!	!	!	!	!	!	!	!LO:SIC:o=8g 8e\	!	!	!	!	!
8BB/	.	.	8r	.	8r	.	8r	.	8BB/	.	.	8d\	.	.	8b\	.	.	8gg\	.	.	8G/	.	8g\	.	8b'\	.	8gg'\	.
!	!	!	!LO:SIC:o=8d\	!	!	!	!	!	!	!	!	!	!	!	!	!	!	!	!	!	!	!	!	!	!	!	!	!
8r	.	.	8d'\	.	8b'\	.	8gg'\	.	8r	.	.	8r	.	.	8r	.	.	8r	.	.	8r	.	8r	.	8r	.	8r	.
=76	=76	=76	=76	=76	=76	=76	=76	=76	=76	=76	=76	=76	=76	=76	=76	=76	=76	=76	=76	=76	=76	=76	=76	=76	=76	=76	=76	=76
!	!	!	!	!	!	!	!	!	!	!	!	!	!	!	!	!	!	!	!	!	!	!	!	!	!LO:SIC:o=8cc\	!	!	!
8C/	.	.	8r	.	8r	.	8r	.	8C/	.	.	8d\	.	.	8cc\	.	.	8aa\	.	.	8d/	.	8d/	.	8cc'\	.	8aa'\	.
!	!	!	!LO:SIC:o=8e\	!	!LO:SIC:o=8cc\	!	!	!	!	!	!	!	!	!	!	!	!	!	!	!	!	!	!	!	!	!	!	!
8r	.	.	8e'\	.	8cc'\	.	8aa'\	.	8r	.	.	8r	.	.	8r	.	.	8r	.	.	8r	.	8r	.	8r	.	8r	.
!	!	!	!	!	!	!	!	!	!	!	!	!	!	!	!	!	!	!	!	!	!	!	!	!	!LO:SIC:o=8a/	!	!	!
8D/	.	.	8r	.	8r	.	8r	.	8D\	-bis	-bis,	8d\	-bis	-bis,	8a\	-bis	-bis,	8ff#\	-bis	-bis,	8d/	.	8d/	.	8a'/	.	8ff#'\	.
!	!	!	!	!	!	!	!LO:N:vis=8	!	!	!	!	!	!	!	!	!	!	!	!	!	!	!	!	!	!	!	!	!
!	!	!	!LO:SIC:o=8d\	!	!LO:SIC:o=8a/	!	!LO:MO:mod=8ff#'\	!	!	!	!	!	!	!	!	!	!	!	!	!	!	!	!	!	!	!	!	!
8r	.	.	8d'\	.	8a'/	.	16ff#'\	.	8r	.	.	8r	.	.	8r	.	.	8r	.	.	8r	.	8r	.	8r	.	8r	.
!	!	!	!	!	!	!	!LO:N:vis=8	!	!	!	!	!	!	!	!	!	!	!	!	!	!	!	!	!	!	!	!	!
!	!	!	!	!	!	!	!LO:MO:mod=.	!	!	!	!	!	!	!	!	!	!	!	!	!	!	!	!	!	!	!	!	!
.	.	.	.	.	.	.	16r	.	.	.	.	.	.	.	.	.	.	.	.	.	.	.	.	.	.	.	.	.
=77	=77	=77	=77	=77	=77	=77	=77	=77	=77	=77	=77	=77	=77	=77	=77	=77	=77	=77	=77	=77	=77	=77	=77	=77	=77	=77	=77	=77
!	!	!	!	!LO:MO:null:mod=!LO&colon;DY&colon;ed=brack	!	!	!	!	!	!	!	!	!	!	!	!	!	!	!	!	!	!	!	!	!	!LO:MO:null:mod=!LO&colon;DY&colon;ed=brack	!	!
!	!	!	!	!	!	!	!	!	!	!	!	!	!	!	!	!	!	!	!	!	!	!	!	!	!	!	!	!
!	!	!	!	!LO:MO:null:mod=f	!	!LO:DY:a:t=forte	!	!LO:DY:a:t=forte	!	!	!	!	!	!	!	!	!	!	!	!	!	!LO:DY:a:t=for	!	!LO:DY:a:t=for	!	!LO:MO:null:mod=f	!	!LO:DY:a:t=for
8G\L	.	.	8d\L	.	16b\LL	f	16dd\LL	f	2G\	Mi-	mi-	2d\	Mi-	mi-	2b\	Mi-	mi-	2dd\	Mi-	mi-	2G/	f	2d/	f	2bb\	.	2ddd\	f
.	.	.	.	.	16b\	.	16dd\	.	.	.	.	.	.	.	.	.	.	.	.	.	.	.	.	.	.	.	.	.
8G\	.	.	8d\	.	16b\	.	16dd\	.	.	.	.	.	.	.	.	.	.	.	.	.	.	.	.	.	.	.	.	.
.	.	.	.	.	16b\JJ	.	16dd\JJ	.	.	.	.	.	.	.	.	.	.	.	.	.	.	.	.	.	.	.	.	.
*	*	*	*	*	*tremolo	*	*tremolo	*	*	*	*	*	*	*	*	*	*	*	*	*	*	*	*	*	*	*	*	*
8G\	.	.	8d\	.	16b\LL	.	16dd\LL	.	.	.	.	.	.	.	.	.	.	.	.	.	.	.	.	.	.	.	.	.
.	.	.	.	.	16b\	.	16dd\	.	.	.	.	.	.	.	.	.	.	.	.	.	.	.	.	.	.	.	.	.
8G\J	.	.	8d\J	.	16b\	.	16dd\	.	.	.	.	.	.	.	.	.	.	.	.	.	.	.	.	.	.	.	.	.
.	.	.	.	.	16b\JJ	.	16dd\JJ	.	.	.	.	.	.	.	.	.	.	.	.	.	.	.	.	.	.	.	.	.
=78	=78	=78	=78	=78	=78	=78	=78	=78	=78	=78	=78	=78	=78	=78	=78	=78	=78	=78	=78	=78	=78	=78	=78	=78	=78	=78	=78	=78
*tremolo	*	*	*tremolo	*	*	*	*	*	*	*	*	*	*	*	*	*	*	*	*	*	*	*	*	*	*	*	*	*
8G\L	.	.	8d\L	.	16b\LL	.	16gg\LL	.	2G\	-se-	-se-	2d\	-se-	-se-	2b\	-se-	-se-	2dd\	-se-	-se-	2G/	.	2d/	.	2bb\	.	2ddd\	.
.	.	.	.	.	16b\	.	16gg\	.	.	.	.	.	.	.	.	.	.	.	.	.	.	.	.	.	.	.	.	.
8G\	.	.	8d\	.	16b\	.	16gg\	.	.	.	.	.	.	.	.	.	.	.	.	.	.	.	.	.	.	.	.	.
.	.	.	.	.	16b\	.	16gg\	.	.	.	.	.	.	.	.	.	.	.	.	.	.	.	.	.	.	.	.	.
8G\	.	.	8d\	.	16b\	.	16gg\	.	.	.	.	.	.	.	.	.	.	.	.	.	.	.	.	.	.	.	.	.
.	.	.	.	.	16b\	.	16gg\	.	.	.	.	.	.	.	.	.	.	.	.	.	.	.	.	.	.	.	.	.
8G\J	.	.	8d\J	.	16b\	.	16gg\	.	.	.	.	.	.	.	.	.	.	.	.	.	.	.	.	.	.	.	.	.
.	.	.	.	.	16b\JJ	.	16gg\JJ	.	.	.	.	.	.	.	.	.	.	.	.	.	.	.	.	.	.	.	.	.
!	!	!	!	!	!	!	!	!	!LO:LB:g=original	!	!	!LO:LB:g=original	!	!	!	!	!	!	!	!	!	!	!LO:LB:g=original	!	!	!	!	!
=79	=79	=79	=79	=79	=79	=79	=79	=79	=79	=79	=79	=79	=79	=79	=79	=79	=79	=79	=79	=79	=79	=79	=79	=79	=79	=79	=79	=79
8C/L	.	.	8g\L	.	16cc\LL	.	16ee\LL	.	2C/	-re-	-re-	2G/	-re-	-re-	2cc\	-re-	-re-	2ee\	-re-	-re-	2g\	.	2g\	.	2ccc\	.	2eee\	.
.	.	.	.	.	16cc\	.	16ee\	.	.	.	.	.	.	.	.	.	.	.	.	.	.	.	.	.	.	.	.	.
8C/	.	.	8g\	.	16cc\	.	16ee\	.	.	.	.	.	.	.	.	.	.	.	.	.	.	.	.	.	.	.	.	.
.	.	.	.	.	16cc\	.	16ee\	.	.	.	.	.	.	.	.	.	.	.	.	.	.	.	.	.	.	.	.	.
8C/	.	.	8g\	.	16cc\	.	16ee\	.	.	.	.	.	.	.	.	.	.	.	.	.	.	.	.	.	.	.	.	.
.	.	.	.	.	16cc\	.	16ee\	.	.	.	.	.	.	.	.	.	.	.	.	.	.	.	.	.	.	.	.	.
8C/J	.	.	8g\J	.	16cc\	.	16ee\	.	.	.	.	.	.	.	.	.	.	.	.	.	.	.	.	.	.	.	.	.
.	.	.	.	.	16cc\JJ	.	16ee\JJ	.	.	.	.	.	.	.	.	.	.	.	.	.	.	.	.	.	.	.	.	.
!	!	!	!	!	!	!	!	!	!	!	!	!	!	!	!	!	!	!LO:LB:g=original	!	!	!	!	!	!	!	!	!	!
=80	=80	=80	=80	=80	=80	=80	=80	=80	=80	=80	=80	=80	=80	=80	=80	=80	=80	=80	=80	=80	=80	=80	=80	=80	=80	=80	=80	=80
8A\L	.	.	8d\L	.	16ff#X\LL	.	16ccc\LL	.	2A\	-re	-re	2d\	-re	-re	2a\	-re	-re	2ff#\	-re	-re	2d/	.	2a\	.	2ff#\	.	2ccc\	.
.	.	.	.	.	16ff#\	.	16ccc\	.	.	.	.	.	.	.	.	.	.	.	.	.	.	.	.	.	.	.	.	.
8A\	.	.	8d\	.	16ff#\	.	16ccc\	.	.	.	.	.	.	.	.	.	.	.	.	.	.	.	.	.	.	.	.	.
.	.	.	.	.	16ff#\	.	16ccc\	.	.	.	.	.	.	.	.	.	.	.	.	.	.	.	.	.	.	.	.	.
8A\	.	.	8d\	.	16ff#\	.	16ccc\	.	.	.	.	.	.	.	.	.	.	.	.	.	.	.	.	.	.	.	.	.
.	.	.	.	.	16ff#\	.	16ccc\	.	.	.	.	.	.	.	.	.	.	.	.	.	.	.	.	.	.	.	.	.
8A\J	.	.	8d\J	.	16ff#\	.	16ccc\	.	.	.	.	.	.	.	.	.	.	.	.	.	.	.	.	.	.	.	.	.
.	.	.	.	.	16ff#\JJ	.	16ccc\JJ	.	.	.	.	.	.	.	.	.	.	.	.	.	.	.	.	.	.	.	.	.
*Xtremolo	*	*	*	*	*	*	*	*	*	*	*	*	*	*	*	*	*	*	*	*	*	*	*	*	*	*	*	*
!	!	!	!	!	!LO:LB:g=original	!	!LO:LB:g=original	!	!	!	!	!	!	!	!LO:LB:g=original	!	!	!	!	!	!	!	!	!	!	!	!	!
=81	=81	=81	=81	=81	=81	=81	=81	=81	=81	=81	=81	=81	=81	=81	=81	=81	=81	=81	=81	=81	=81	=81	=81	=81	=81	=81	=81	=81
!	!	!	!	!	!	!	!	!	!	!	!	!	!	!	!LO:SIC:o=2b\	!	!	!LO:SIC:o=2gg\	!	!	!	!	!	!	!	!	!	!
8G\L	.	.	16d\LL	.	16gg\LL	.	16bb\LL	.	(4G\	no-	no-	[2d\	no-	no-	(2b\	no-	no-	(2gg\	no-	no-	4g\	.	4b\	.	4gg\	.	4bb\	.
.	.	.	16d\	.	16gg\	.	16bb\	.	.	.	.	.	.	.	.	.	.	.	.	.	.	.	.	.	.	.	.	.
!LO:TX:t=P:problem:mixed beam	!	!	!	!	!	!	!	!	!	!	!	!	!	!	!	!	!	!	!	!	!	!	!	!	!	!	!	!
8G\	.	.	16d\	.	16gg\	.	16bb\	.	.	.	.	.	.	.	.	.	.	.	.	.	.	.	.	.	.	.	.	.
.	.	.	16d\	.	16gg\JJ	.	16bb\JJ	.	.	.	.	.	.	.	.	.	.	.	.	.	.	.	.	.	.	.	.	.
8BB/	.	.	16d\	.	16b\LL	.	16gg\LL	.	4BB/)	.	.	.	.	.	.	.	.	.	.	.	8g\L	.	8b\L	.	4b/	.	4gg\	.
.	.	.	16d\	.	16b\	.	16gg\	.	.	.	.	.	.	.	.	.	.	.	.	.	.	.	.	.	.	.	.	.
8BB/J	.	.	16d\	.	16b\	.	16gg\	.	.	.	.	.	.	.	.	.	.	.	.	.	8g\J	.	8b\J	.	.	.	.	.
.	.	.	16d\JJ	.	16b\JJ	.	16gg\JJ	.	.	.	.	.	.	.	.	.	.	.	.	.	.	.	.	.	.	.	.	.
!	!	!	!	!	!	!	!	!	!	!	!	!	!	!	!	!	!	!	!	!	!LO:LB:g=original	!	!	!	!	!	!LO:LB:g=original	!
=82	=82	=82	=82	=82	=82	=82	=82	=82	=82	=82	=82	=82	=82	=82	=82	=82	=82	=82	=82	=82	=82	=82	=82	=82	=82	=82	=82	=82
!	!	!	!	!	!	!	!	!	!	!	!	!	!	!	!LO:SIC:o=4cc\	!	!	!LO:SIC:o=4aa\	!	!	!	!	!	!	!	!	!	!
8C/L	.	.	16d\LL	.	16cc\LL	.	16aa\LL	.	(4C/	-bis	-bis,	4d\]	.	.	4cc\)	.	.	4aa\)	.	.	4d/	.	4a\	.	4cc\	.	4aa\	.
.	.	.	16d\	.	16cc\	.	16aa\	.	.	.	.	.	.	.	.	.	.	.	.	.	.	.	.	.	.	.	.	.
8C/	.	.	16d\	.	16cc\	.	16aa\	.	.	.	.	.	.	.	.	.	.	.	.	.	.	.	.	.	.	.	.	.
.	.	.	16d\	.	16cc\JJ	.	16aa\JJ	.	.	.	.	.	.	.	.	.	.	.	.	.	.	.	.	.	.	.	.	.
8D/	.	.	16d\	.	16a/LL	.	16ff#\LL	.	4D\)	.	.	4d\	-bis	-bis,	4a\	-bis	-bis,	4ff#\	-bis	-bis,	8d/L	.	8a\L	.	4a/	.	4ff#\	.
.	.	.	16d\	.	16a/	.	16ff#\	.	.	.	.	.	.	.	.	.	.	.	.	.	.	.	.	.	.	.	.	.
8D/J	.	.	16d\	.	16a/	.	16ff#\	.	.	.	.	.	.	.	.	.	.	.	.	.	8d/J	.	8a\J	.	.	.	.	.
*	*	*	*	*	*	*	*	*	*	*	*	*	*	*	*	*	*	*	*	*	*	*	*	*	*	*	*	*
.	.	.	16d\JJ	.	16a/JJ	.	16ff#\JJ	.	.	.	.	.	.	.	.	.	.	.	.	.	.	.	.	.	.	.	.	.
*	*	*	*Xtremolo	*	*Xtremolo	*	*Xtremolo	*	*	*	*	*	*	*	*	*	*	*	*	*	*	*	*	*	*	*	*	*
!	!	!	!LO:LB:g=original	!	!	!	!	!	!	!	!	!	!	!	!	!	!	!	!	!	!	!	!	!	!	!	!	!
=83	=83	=83	=83	=83	=83	=83	=83	=83	=83	=83	=83	=83	=83	=83	=83	=83	=83	=83	=83	=83	=83	=83	=83	=83	=83	=83	=83	=83
!	!	!	!	!	!	!LO:MO:null:mod=!LO&colon;DY&colon;ed=brack	!	!	!	!	!	!	!	!	!	!	!	!	!	!	!	!	!	!	!	!	!	!
!	!	!	!	!	!	!	!	!	!	!	!	!	!	!	!	!	!	!	!	!	!	!	!	!	!	!	!	!
!	!	!	!	!LO:DY:a:t=forte	!	!LO:MO:null:mod=f	!	!LO:DY:a:t=fofortisime	!	!	!	!	!	!	!	!	!	!	!	!	!	!	!	!	!	!	!	!
4G\	.	.	8g\L	f	(16b/LL	.	8.gg\L	ff	4G\	Mi-	mi-	4d\	mi-	mi-	4b\	Mi-	mi-	4gg\	Mi-	mi-	4g\	.	4b\	.	4gg\	.	4bb\	.
.	.	.	.	.	16d/)	.	.	.	.	.	.	.	.	.	.	.	.	.	.	.	.	.	.	.	.	.	.	.
.	.	.	8g\	.	(16b/	.	.	.	.	.	.	.	.	.	.	.	.	.	.	.	.	.	.	.	.	.	.	.
.	.	.	.	.	16d/JJ)	.	16bb\K	.	.	.	.	.	.	.	.	.	.	.	.	.	.	.	.	.	.	.	.	.
4D\	.	.	8a\	.	(16cc/LL	.	8.dd\	.	4D\	-se-	-se-	4d\	-se-	-se-	4a\	-se-	-se-	4ff#\	-se-	-se-	8d\L	.	8a\L	.	4ff#\	.	4ccc\	.
.	.	.	.	.	16d/)	.	.	.	.	.	.	.	.	.	.	.	.	.	.	.	.	.	.	.	.	.	.	.
.	.	.	8a\J	.	(16cc/	.	.	.	.	.	.	.	.	.	.	.	.	.	.	.	8d\J	.	8a\J	.	.	.	.	.
.	.	.	.	.	16d/JJ)	.	16ff#\Jk	.	.	.	.	.	.	.	.	.	.	.	.	.	.	.	.	.	.	.	.	.
=84	=84	=84	=84	=84	=84	=84	=84	=84	=84	=84	=84	=84	=84	=84	=84	=84	=84	=84	=84	=84	=84	=84	=84	=84	=84	=84	=84	=84
!	!	!	!	!	!	!	!	!	!	!	!	!	!	!	!	!	!	!	!	!	!	!	!LO:TX:b:t=c:mod=	!	!	!	!	!
4GG/	.	.	8g\L	.	(16b/LL	.	8.gg\L	.	4GG/	-re-	-re-	4d\	-re-	-re-	4b\	-re-	-re-	4gg\	-re-	-re-	4B/	.	4g/	.	4gg\	.	4bb\	.
.	.	.	.	.	16d/)	.	.	.	.	.	.	.	.	.	.	.	.	.	.	.	.	.	.	.	.	.	.	.
.	.	.	8g\	.	(16b/	.	.	.	.	.	.	.	.	.	.	.	.	.	.	.	.	.	.	.	.	.	.	.
.	.	.	.	.	16d/JJ)	.	16bb\K	.	.	.	.	.	.	.	.	.	.	.	.	.	.	.	.	.	.	.	.	.
4D\	.	.	8a\	.	(16cc/LL	.	8.dd\	.	4D\	-re	-re,	4d\	-re	-re,	4a\	-re	-re,	4ff#\	-re	-re,	8d/L	.	8a\L	.	4ff#\	.	4ccc\	.
.	.	.	.	.	16d/)	.	.	.	.	.	.	.	.	.	.	.	.	.	.	.	.	.	.	.	.	.	.	.
.	.	.	8a\J	.	(16cc/	.	.	.	.	.	.	.	.	.	.	.	.	.	.	.	8d/J	.	8a\J	.	.	.	.	.
.	.	.	.	.	16d/JJ)	.	16ff#\Jk	.	.	.	.	.	.	.	.	.	.	.	.	.	.	.	.	.	.	.	.	.
=85	=85	=85	=85	=85	=85	=85	=85	=85	=85	=85	=85	=85	=85	=85	=85	=85	=85	=85	=85	=85	=85	=85	=85	=85	=85	=85	=85	=85
*	*	*	*	*	*	*	*	*	*	*ij	*ij	*	*	*	*	*	*	*	*	*	*	*	*	*	*	*	*	*
4G\	.	.	8g\L	.	(16b/LL	.	8.gg\L	.	4G\	Mi-	mi-	4d\	mi-	mi-	4b\	Mi-	mi-	4gg\	Mi-	mi-	4g\	.	4b\	.	4gg\	.	4bb\	.
.	.	.	.	.	16d/)	.	.	.	.	.	.	.	.	.	.	.	.	.	.	.	.	.	.	.	.	.	.	.
.	.	.	8g\	.	(16b/	.	.	.	.	.	.	.	.	.	.	.	.	.	.	.	.	.	.	.	.	.	.	.
.	.	.	.	.	16d/JJ)	.	16bb\K	.	.	.	.	.	.	.	.	.	.	.	.	.	.	.	.	.	.	.	.	.
4D\	.	.	8a\	.	(16cc/LL	.	8.dd\	.	4D\	-se-	-se-	4d\	-se-	-se-	4a\	-se-	-se-	4ff#\	-se-	-se-	8d\L	.	8a\L	.	4ff#\	.	4ccc\	.
.	.	.	.	.	16d/)	.	.	.	.	.	.	.	.	.	.	.	.	.	.	.	.	.	.	.	.	.	.	.
.	.	.	8a\J	.	(16cc/	.	.	.	.	.	.	.	.	.	.	.	.	.	.	.	8d\J	.	8a\J	.	.	.	.	.
.	.	.	.	.	16d/JJ)	.	16ff#\Jk	.	.	.	.	.	.	.	.	.	.	.	.	.	.	.	.	.	.	.	.	.
=86	=86	=86	=86	=86	=86	=86	=86	=86	=86	=86	=86	=86	=86	=86	=86	=86	=86	=86	=86	=86	=86	=86	=86	=86	=86	=86	=86	=86
4GG/	.	.	8g\L	.	(16b/LL	.	8.gg\L	.	4G\	-re-	-re-	4d\	-re-	-re-	4b\	-re-	-re-	4gg\	-re-	-re-	4B/	.	4g\	.	4gg\	.	4bb\	.
.	.	.	.	.	16d/)	.	.	.	.	.	.	.	.	.	.	.	.	.	.	.	.	.	.	.	.	.	.	.
.	.	.	8g\	.	(16b/	.	.	.	.	.	.	.	.	.	.	.	.	.	.	.	.	.	.	.	.	.	.	.
.	.	.	.	.	16d/JJ)	.	16bb\K	.	.	.	.	.	.	.	.	.	.	.	.	.	.	.	.	.	.	.	.	.
4D\	.	.	8a\	.	(16cc/LL	.	8.dd\	.	4D\	-re	-re	4d\	-re	-re	4a\	-re	-re	4ff#\	-re	-re	8d/L	.	8g\L	.	4ff#\	.	4ccc\	.
.	.	.	.	.	16d/)	.	.	.	.	.	.	.	.	.	.	.	.	.	.	.	.	.	.	.	.	.	.	.
.	.	.	8a\J	.	(16cc/	.	.	.	.	.	.	.	.	.	.	.	.	.	.	.	8d/J	.	8a\J	.	.	.	.	.
.	.	.	.	.	16d/JJ)	.	16ff#\Jk	.	.	.	.	.	.	.	.	.	.	.	.	.	.	.	.	.	.	.	.	.
*	*	*	*	*	*	*	*	*	*	*Xij	*Xij	*	*	*	*	*	*	*	*	*	*	*	*	*	*	*	*	*
!	!	!	!	!	!	!	!	!	!	!	!	!	!	!	!	!	!	!	!	!	!	!	!	!	!LO:LB:g=original	!	!	!
=87	=87	=87	=87	=87	=87	=87	=87	=87	=87	=87	=87	=87	=87	=87	=87	=87	=87	=87	=87	=87	=87	=87	=87	=87	=87	=87	=87	=87
!	!	!	!	!	!	!	!	!	!	!	!	!	!	!	!LO:SIC:o=2b\	!	!	!LO:SIC:o=2gg\	!	!	!	!	!	!	!	!	!	!
4G\	.	.	4g\	.	4b 4d 4G/	.	4gg 4b 4d 4G/	.	[2G\	no-	no-	[2d\	no-	no-	[2b\	no-	no-	[2gg\	no-	no-	4g\	.	4b\	.	4gg\	.	4bb\	.
4G\	.	.	4d 4G\	.	4b 4d 4G/	.	4gg 4b 4d 4G/	.	.	.	.	.	.	.	.	.	.	.	.	.	4B/	.	4d/	.	4gg\	.	4bb\	.
!LO:LB:g=original	!	!	!	!	!	!	!	!	!	!	!	!	!	!	!	!	!	!	!	!	!	!	!	!	!	!	!	!
=88	=88	=88	=88	=88	=88	=88	=88	=88	=88	=88	=88	=88	=88	=88	=88	=88	=88	=88	=88	=88	=88	=88	=88	=88	=88	=88	=88	=88
!	!	!	!	!	!	!	!	!	!	!	!	!	!	!	!LO:SIC:o=2b\	!	!	!LO:SIC:o=2gg\	!	!	!	!	!	!	!	!	!	!
4D\	.	.	4d 4G\	.	4b 4d 4G/	.	4gg 4b 4d 4G/	.	2G\]	.	.	2d\]	.	.	2b\]	.	.	2gg\]	.	.	4G/	.	4B/	.	4gg\	.	4bb\	.
4BB/	.	.	4d 4G\	.	4b 4d 4G/	.	4gg 4b 4d 4G/	.	.	.	.	.	.	.	.	.	.	.	.	.	4G/	.	4B/	.	4gg\	.	4bb\	.
!	!	!	!	!	!	!	!	!	!LO:LB:g=original	!	!	!	!	!	!	!	!	!	!	!	!	!	!	!	!	!	!	!
=89	=89	=89	=89	=89	=89	=89	=89	=89	=89	=89	=89	=89	=89	=89	=89	=89	=89	=89	=89	=89	=89	=89	=89	=89	=89	=89	=89	=89
2GG/	.	.	2d 2G\	.	2b 2d 2G/	.	2gg 2b 2d 2G/	.	4G\	-bis	-bis.	4d\	-bis	-bis.	4b\	-bis	-bis.	4gg\	-bis	-bis.	2G/	.	2B/	.	2gg\	.	2bb\	.
.	.	.	.	.	.	.	.	.	4r	.	.	4r	.	.	4r	.	.	4r	.	.	.	.	.	.	.	.	.	.
!LO:TX:b:t=Finis:mod=	!	!	!	!	!	!	!	!	!LO:TX:b:t=Finis:mod=	!	!	!LO:TX:b:t=Finis.:mod=	!	!	!LO:TX:b:t=Finis:mod=	!	!	!LO:TX:b:t=Finis.:mod=	!	!	!	!	!	!	!	!	!	!
==	==	==	==	==	==	==	==	==	==	==	==	==	==	==	==	==	==	==	==	==	==	==	==	==	==	==	==	==
*-	*-	*-	*-	*-	*-	*-	*-	*-	*-	*-	*-	*-	*-	*-	*-	*-	*-	*-	*-	*-	*-	*-	*-	*-	*-	*-	*-	*-
!!!system-decoration: [(g1)][(g2)][(g3)][(g4)](s12)
!!!RDF**kern: > = above
!!!RDF**kern: < = below
!!!filter-modern: sic -sq | shed -e "s/LO:DY:(a|b|rj)/LO:dy:$1/L" | autostem -r | tie -s | shed -k -e "s/([\(\)\[\]])[><]/$1/g" | shed -k -e "s/:TUP:/:tup:/L" | shed -e "s/N:vis=/N:VIS=/L" | shed -e "s/TX(.*):t=P:/tx$1:t=P:/LG" | shed -e "s/^(\d+[\/\\]right)/$1yy/I; s/^(\d+[\/\\]left)/$1yy/I" | modori -m
!!!ENC: Krzysztof Stępień
!!!END: 2020-10-20
!!!EED: Krzysztof Stępień
!!!EEV: 2022-04-19
!!!ENC-modern: Katarzyna Serwa
!!!END-modern: 2022-09-26
